( pcb2gcode 1.3.2 )
( Software-independent Gcode )

G94 ( Millimeters per minute feed rate. )
G21 ( Units == Millimeters. )

G90 ( Absolute coordinates. )
G00 S10000 ( RPM spindle speed. )
G64 P0.01000 ( set maximum deviation from commanded toolpath )
G01 F600.00000 ( Feedrate. )

G01 F600.00000 ( Feedrate. )
M3 ( Spindle on clockwise. )
G04 P1.00000
G04 P0 ( dwell for no time -- G64 should not smooth over this point )
G00 Z5.00000 ( retract )

G00 X-25.92578 Y142.58012 ( rapid move to begin. )
G01 F300.00000
G01 Z-0.05000
G04 P0 ( dwell for no time -- G64 should not smooth over this point )
G01 F600.00000
G01 X-25.92578 Y142.58012
G01 X-25.92578 Y144.16150
G01 X-25.94818 Y144.37986
G01 X-26.02565 Y144.61824
G01 X-26.14246 Y144.81621
G01 X-26.28973 Y144.97897
G01 X-26.48511 Y145.11890
G01 X-26.69598 Y145.21039
G01 X-26.91081 Y145.25548
G01 X-27.15110 Y145.25385
G01 X-27.36570 Y145.20767
G01 X-27.56646 Y145.11890
G01 X-27.76923 Y144.97156
G01 X-27.92140 Y144.79929
G01 X-28.03067 Y144.60892
G01 X-28.10339 Y144.37986
G01 X-28.12580 Y144.16150
G01 X-28.12580 Y143.84580
G01 X-28.67609 Y143.84580
G01 X-28.68378 Y144.39386
G01 X-28.71645 Y144.50155
G01 X-28.80863 Y144.63950
G01 X-30.83831 Y146.66988
G01 X-30.98355 Y146.76866
G01 X-31.16437 Y146.80853
G01 X-46.37054 Y146.80132
G01 X-46.47824 Y146.76866
G01 X-46.62347 Y146.66988
G01 X-47.87496 Y145.41839
G01 X-48.12136 Y145.52751
G01 X-48.43820 Y145.59540
G01 X-48.77257 Y145.59759
G01 X-49.11999 Y145.52375
G01 X-49.42456 Y145.38575
G01 X-49.69380 Y145.18743
G01 X-49.91592 Y144.93749
G01 X-50.08120 Y144.64682
G01 X-50.18247 Y144.32812
G01 X-50.21524 Y144.01626
G01 X-50.18247 Y143.68350
G01 X-50.08120 Y143.36480
G01 X-49.91021 Y143.06536
G01 X-49.69380 Y142.82419
G01 X-49.42456 Y142.62587
G01 X-49.11021 Y142.48411
G01 X-48.78303 Y142.41456
G01 X-48.44854 Y142.41456
G01 X-48.12136 Y142.48411
G01 X-47.80701 Y142.62587
G01 X-47.54519 Y142.81677
G01 X-47.32137 Y143.06536
G01 X-47.15037 Y143.36480
G01 X-47.04910 Y143.68350
G01 X-47.01634 Y143.99536
G01 X-47.05347 Y144.34857
G01 X-47.15037 Y144.64682
G01 X-47.20465 Y144.74522
G01 X-46.09084 Y145.85901
G01 X-31.37093 Y145.85901
G01 X-29.62610 Y144.11415
G01 X-29.61840 Y143.28784
G01 X-29.58574 Y143.18017
G01 X-29.49356 Y143.04220
G01 X-29.34172 Y142.93615
G01 X-29.23405 Y142.90349
G01 X-28.12580 Y142.89582
G01 X-28.12580 Y142.58012
G01 X-28.10339 Y142.36176
G01 X-28.03067 Y142.13270
G01 X-27.90911 Y141.92541
G01 X-27.76184 Y141.76265
G01 X-27.58457 Y141.63318
G01 X-27.36570 Y141.53394
G01 X-27.13032 Y141.48558
G01 X-26.92125 Y141.48558
G01 X-26.69598 Y141.53123
G01 X-26.48511 Y141.62272
G01 X-26.28973 Y141.76265
G01 X-26.13017 Y141.94233
G01 X-26.02090 Y142.13270
G01 X-25.95252 Y142.34128
G01 X-25.92578 Y142.58012
G04 P0 ( dwell for no time -- G64 should not smooth over this point )
G00 Z5.00000 ( retract )

G00 X-31.00578 Y128.66580 ( rapid move to begin. )
G01 F300.00000
G01 Z-0.05000
G04 P0 ( dwell for no time -- G64 should not smooth over this point )
G01 F600.00000
G01 X-31.00578 Y128.66580
G01 X-31.03252 Y128.42699
G01 X-31.10565 Y128.20908
G01 X-31.21586 Y128.01924
G01 X-31.36234 Y127.85574
G01 X-31.54700 Y127.71888
G01 X-31.76587 Y127.61965
G01 X-32.00125 Y127.57129
G01 X-32.23110 Y127.57347
G01 X-32.44570 Y127.61965
G01 X-32.53917 Y127.66067
G01 X-32.67108 Y127.52877
G01 X-32.67110 Y125.46623
G01 X-32.51230 Y125.39313
G01 X-32.30969 Y125.24523
G01 X-32.13481 Y125.05105
G01 X-32.00415 Y124.82473
G01 X-31.92612 Y124.58630
G01 X-31.89663 Y124.32677
G01 X-31.92178 Y124.06675
G01 X-32.00415 Y123.80789
G01 X-32.13481 Y123.58158
G01 X-32.30227 Y123.39479
G01 X-32.51230 Y123.23947
G01 X-32.75982 Y123.12748
G01 X-33.01542 Y123.07315
G01 X-33.27674 Y123.07315
G01 X-33.53237 Y123.12748
G01 X-33.76175 Y123.22903
G01 X-33.98990 Y123.39479
G01 X-34.15736 Y123.58158
G01 X-34.28327 Y123.79857
G01 X-34.37041 Y124.06675
G01 X-34.39553 Y124.30586
G01 X-34.37041 Y124.56586
G01 X-34.28802 Y124.82473
G01 X-34.15078 Y125.05917
G01 X-33.97438 Y125.25183
G01 X-33.77107 Y125.39885
G01 X-33.62109 Y125.46623
G01 X-33.61339 Y127.80847
G01 X-33.58825 Y127.89806
G01 X-33.53518 Y127.99729
G01 X-33.16366 Y128.37969
G01 X-33.20524 Y128.65536
G01 X-33.20524 Y128.87626
G01 X-33.18174 Y129.09452
G01 X-33.10592 Y129.32254
G01 X-32.99571 Y129.51238
G01 X-32.84923 Y129.67588
G01 X-32.64646 Y129.82320
G01 X-32.44570 Y129.91197
G01 X-32.22076 Y129.95977
G01 X-31.99081 Y129.95977
G01 X-31.77598 Y129.91469
G01 X-31.54700 Y129.81273
G01 X-31.36234 Y129.67588
G01 X-31.21017 Y129.50359
G01 X-31.10090 Y129.31322
G01 X-31.03252 Y129.10463
G01 X-31.00634 Y128.87626
G01 X-31.00578 Y128.66580
G04 P0 ( dwell for no time -- G64 should not smooth over this point )
G00 Z5.00000 ( retract )

G00 X-28.50578 Y128.66580 ( rapid move to begin. )
G01 F300.00000
G01 Z-0.05000
G04 P0 ( dwell for no time -- G64 should not smooth over this point )
G01 F600.00000
G01 X-28.50578 Y128.66580
G01 X-28.53253 Y128.42699
G01 X-28.60088 Y128.21840
G01 X-28.71018 Y128.02803
G01 X-28.86974 Y127.84835
G01 X-29.04700 Y127.71888
G01 X-29.13080 Y127.67918
G01 X-29.13080 Y125.24101
G01 X-28.95412 Y125.04226
G01 X-28.82915 Y124.82473
G01 X-28.75112 Y124.58630
G01 X-28.72163 Y124.30586
G01 X-28.75112 Y124.04630
G01 X-28.82542 Y123.81765
G01 X-28.95981 Y123.58158
G01 X-29.12727 Y123.39479
G01 X-29.35541 Y123.22903
G01 X-29.58482 Y123.12748
G01 X-29.84042 Y123.07315
G01 X-30.10174 Y123.07315
G01 X-30.35737 Y123.12748
G01 X-30.58675 Y123.22903
G01 X-30.79938 Y123.38079
G01 X-30.98236 Y123.58158
G01 X-31.11677 Y123.81765
G01 X-31.19376 Y124.05641
G01 X-31.22053 Y124.30586
G01 X-31.19541 Y124.56586
G01 X-31.11302 Y124.82473
G01 X-30.98236 Y125.05105
G01 X-30.81490 Y125.23784
G01 X-30.59607 Y125.39885
G01 X-30.36712 Y125.50139
G01 X-30.08078 Y125.56001
G01 X-30.08078 Y127.67918
G01 X-30.16455 Y127.71888
G01 X-30.34924 Y127.85574
G01 X-30.49569 Y128.01924
G01 X-30.61444 Y128.22818
G01 X-30.68175 Y128.43710
G01 X-30.70578 Y128.66580
G01 X-30.70524 Y128.87626
G01 X-30.68337 Y129.08419
G01 X-30.61444 Y129.30344
G01 X-30.49569 Y129.51238
G01 X-30.34924 Y129.67588
G01 X-30.14647 Y129.82320
G01 X-29.94571 Y129.91197
G01 X-29.72077 Y129.95977
G01 X-29.49079 Y129.95977
G01 X-29.26588 Y129.91197
G01 X-29.06512 Y129.82320
G01 X-28.87787 Y129.68985
G01 X-28.71018 Y129.50359
G01 X-28.60088 Y129.31322
G01 X-28.53253 Y129.10463
G01 X-28.50634 Y128.87626
G01 X-28.50578 Y128.66580
G04 P0 ( dwell for no time -- G64 should not smooth over this point )
G00 Z5.00000 ( retract )

G00 X-25.54610 Y124.31630 ( rapid move to begin. )
G01 F300.00000
G01 Z-0.05000
G04 P0 ( dwell for no time -- G64 should not smooth over this point )
G01 F600.00000
G01 X-25.54610 Y124.31630
G01 X-25.57612 Y124.04630
G01 X-25.65415 Y123.80789
G01 X-25.78481 Y123.58158
G01 X-25.95227 Y123.39479
G01 X-26.16230 Y123.23947
G01 X-26.41993 Y123.12479
G01 X-26.66542 Y123.07315
G01 X-26.91630 Y123.07262
G01 X-27.19212 Y123.13124
G01 X-27.42107 Y123.23378
G01 X-27.62438 Y123.38079
G01 X-27.80078 Y123.57345
G01 X-27.93327 Y123.79857
G01 X-28.02041 Y124.06675
G01 X-28.04609 Y124.31630
G01 X-28.01607 Y124.58630
G01 X-27.93802 Y124.82473
G01 X-27.81305 Y125.04226
G01 X-27.63990 Y125.23784
G01 X-27.58079 Y125.28348
G01 X-27.58079 Y127.56580
G01 X-28.12529 Y127.56773
G01 X-28.17650 Y127.59511
G01 X-28.20388 Y127.64629
G01 X-28.20578 Y129.86582
G01 X-28.18894 Y129.92137
G01 X-28.14406 Y129.95820
G01 X-26.10579 Y129.96582
G01 X-26.05024 Y129.94895
G01 X-26.01341 Y129.90407
G01 X-26.00772 Y127.64629
G01 X-26.03507 Y127.59511
G01 X-26.08628 Y127.56773
G01 X-26.63078 Y127.56580
G01 X-26.63078 Y125.55267
G01 X-26.40005 Y125.50139
G01 X-26.16230 Y125.39313
G01 X-25.95969 Y125.24523
G01 X-25.79141 Y125.05917
G01 X-25.65042 Y124.81495
G01 X-25.57178 Y124.56586
G01 X-25.54610 Y124.31630
G04 P0 ( dwell for no time -- G64 should not smooth over this point )
G00 Z5.00000 ( retract )

G00 X-25.54610 Y114.15630 ( rapid move to begin. )
G01 F300.00000
G01 Z-0.05000
G04 P0 ( dwell for no time -- G64 should not smooth over this point )
G01 F600.00000
G01 X-25.54610 Y114.15630
G01 X-25.57178 Y113.90675
G01 X-25.65042 Y113.65765
G01 X-25.79141 Y113.41345
G01 X-25.96781 Y113.22079
G01 X-26.17109 Y113.07378
G01 X-26.40005 Y112.97124
G01 X-26.55079 Y112.93697
G01 X-26.55079 Y109.93243
G01 X-26.46700 Y109.89273
G01 X-26.28973 Y109.76327
G01 X-26.14246 Y109.60051
G01 X-26.02090 Y109.39322
G01 X-25.95252 Y109.18463
G01 X-25.92578 Y108.94582
G01 X-25.92578 Y107.94580
G01 X-25.95252 Y107.70699
G01 X-26.02090 Y107.49840
G01 X-26.13586 Y107.29924
G01 X-26.28234 Y107.13574
G01 X-26.47579 Y106.99317
G01 X-26.69598 Y106.89693
G01 X-26.91081 Y106.85184
G01 X-27.14076 Y106.85184
G01 X-27.35559 Y106.89693
G01 X-27.58457 Y106.99889
G01 X-27.76923 Y107.13574
G01 X-27.90911 Y107.29111
G01 X-28.03443 Y107.50818
G01 X-28.09905 Y107.70699
G01 X-28.12524 Y107.93536
G01 X-28.12580 Y108.94582
G01 X-28.09905 Y109.18463
G01 X-28.03067 Y109.39322
G01 X-27.90911 Y109.60051
G01 X-27.75369 Y109.76985
G01 X-27.58457 Y109.89273
G01 X-27.50081 Y109.93243
G01 X-27.50081 Y113.13100
G01 X-27.63990 Y113.23479
G01 X-27.80078 Y113.41345
G01 X-27.94177 Y113.65765
G01 X-28.01876 Y113.89641
G01 X-28.04553 Y114.14586
G01 X-28.01607 Y114.42630
G01 X-27.93802 Y114.66473
G01 X-27.80078 Y114.89917
G01 X-27.62438 Y115.09183
G01 X-27.42986 Y115.23313
G01 X-27.17226 Y115.34784
G01 X-26.92674 Y115.39945
G01 X-26.66542 Y115.39945
G01 X-26.41993 Y115.34784
G01 X-26.18041 Y115.24360
G01 X-25.95227 Y115.07784
G01 X-25.78481 Y114.89105
G01 X-25.65415 Y114.66473
G01 X-25.57612 Y114.42630
G01 X-25.54610 Y114.15630
G04 P0 ( dwell for no time -- G64 should not smooth over this point )
G00 Z5.00000 ( retract )

G00 X-20.84578 Y107.94580 ( rapid move to begin. )
G01 F300.00000
G01 Z-0.05000
G04 P0 ( dwell for no time -- G64 should not smooth over this point )
G01 F600.00000
G01 X-20.84578 Y107.94580
G01 X-20.84578 Y108.94582
G01 X-20.86818 Y109.16418
G01 X-20.94565 Y109.40254
G01 X-21.06246 Y109.60051
G01 X-21.20973 Y109.76327
G01 X-21.38700 Y109.89273
G01 X-21.59609 Y109.98821
G01 X-21.83081 Y110.03977
G01 X-22.05032 Y110.04033
G01 X-22.27559 Y109.99469
G01 X-22.48646 Y109.90320
G01 X-22.68923 Y109.75588
G01 X-22.83571 Y109.59238
G01 X-22.95443 Y109.38344
G01 X-23.02174 Y109.17452
G01 X-23.04580 Y108.94582
G01 X-23.04580 Y107.94580
G01 X-23.02174 Y107.71710
G01 X-22.94592 Y107.48908
G01 X-22.84140 Y107.30803
G01 X-22.68923 Y107.13574
G01 X-22.49579 Y106.99317
G01 X-22.27559 Y106.89693
G01 X-22.06076 Y106.85184
G01 X-21.84125 Y106.85129
G01 X-21.59609 Y106.90341
G01 X-21.39579 Y106.99317
G01 X-21.21789 Y107.12177
G01 X-21.05586 Y107.29924
G01 X-20.94090 Y107.49840
G01 X-20.87252 Y107.70699
G01 X-20.84578 Y107.94580
G04 P0 ( dwell for no time -- G64 should not smooth over this point )
G00 Z5.00000 ( retract )

G00 X-23.38578 Y107.94580 ( rapid move to begin. )
G01 F300.00000
G01 Z-0.05000
G04 P0 ( dwell for no time -- G64 should not smooth over this point )
G01 F600.00000
G01 X-23.38578 Y107.94580
G01 X-23.38578 Y108.94582
G01 X-23.40818 Y109.16418
G01 X-23.48565 Y109.40254
G01 X-23.60246 Y109.60051
G01 X-23.74973 Y109.76327
G01 X-23.93579 Y109.89845
G01 X-24.13609 Y109.98821
G01 X-24.37081 Y110.03977
G01 X-24.59032 Y110.04033
G01 X-24.81559 Y109.99469
G01 X-25.02646 Y109.90320
G01 X-25.22923 Y109.75588
G01 X-25.37571 Y109.59238
G01 X-25.49443 Y109.38344
G01 X-25.56174 Y109.17452
G01 X-25.58580 Y108.94582
G01 X-25.58580 Y107.94580
G01 X-25.56174 Y107.71710
G01 X-25.48592 Y107.48908
G01 X-25.38140 Y107.30803
G01 X-25.22923 Y107.13574
G01 X-25.03579 Y106.99317
G01 X-24.81559 Y106.89693
G01 X-24.60076 Y106.85184
G01 X-24.38125 Y106.85129
G01 X-24.13609 Y106.90341
G01 X-23.93579 Y106.99317
G01 X-23.75789 Y107.12177
G01 X-23.59586 Y107.29924
G01 X-23.48090 Y107.49840
G01 X-23.41252 Y107.70699
G01 X-23.38578 Y107.94580
G04 P0 ( dwell for no time -- G64 should not smooth over this point )
G00 Z5.00000 ( retract )

G00 X-28.46578 Y107.94580 ( rapid move to begin. )
G01 F300.00000
G01 Z-0.05000
G04 P0 ( dwell for no time -- G64 should not smooth over this point )
G01 F600.00000
G01 X-28.46578 Y107.94580
G01 X-28.46578 Y108.94582
G01 X-28.49252 Y109.18463
G01 X-28.56090 Y109.39322
G01 X-28.68246 Y109.60051
G01 X-28.82973 Y109.76327
G01 X-29.00700 Y109.89273
G01 X-29.09079 Y109.93243
G01 X-29.09079 Y113.27530
G01 X-28.95981 Y113.42158
G01 X-28.83390 Y113.63857
G01 X-28.75112 Y113.88630
G01 X-28.72163 Y114.14586
G01 X-28.75112 Y114.42630
G01 X-28.82915 Y114.66473
G01 X-28.95981 Y114.89105
G01 X-29.12727 Y115.07784
G01 X-29.34609 Y115.23885
G01 X-29.57505 Y115.34139
G01 X-29.84042 Y115.39945
G01 X-30.10174 Y115.39945
G01 X-30.34726 Y115.34784
G01 X-30.60486 Y115.23313
G01 X-30.81490 Y115.07784
G01 X-30.98236 Y114.89105
G01 X-31.11677 Y114.65495
G01 X-31.19107 Y114.42630
G01 X-31.22053 Y114.16677
G01 X-31.19376 Y113.89641
G01 X-31.11677 Y113.65765
G01 X-30.98236 Y113.42158
G01 X-30.81490 Y113.23479
G01 X-30.60486 Y113.07947
G01 X-30.36712 Y112.97124
G01 X-30.11208 Y112.91480
G01 X-30.04078 Y112.91262
G01 X-30.04078 Y109.93243
G01 X-30.12457 Y109.89273
G01 X-30.29369 Y109.76985
G01 X-30.45571 Y109.59238
G01 X-30.57067 Y109.39322
G01 X-30.63905 Y109.18463
G01 X-30.66580 Y108.94582
G01 X-30.66580 Y107.94580
G01 X-30.63905 Y107.70699
G01 X-30.57067 Y107.49840
G01 X-30.45571 Y107.29924
G01 X-30.30923 Y107.13574
G01 X-30.12457 Y106.99889
G01 X-29.89559 Y106.89693
G01 X-29.68076 Y106.85184
G01 X-29.45081 Y106.85184
G01 X-29.22587 Y106.89965
G01 X-29.02511 Y106.98842
G01 X-28.82234 Y107.13574
G01 X-28.67586 Y107.29924
G01 X-28.56090 Y107.49840
G01 X-28.49252 Y107.70699
G01 X-28.46578 Y107.94580
G04 P0 ( dwell for no time -- G64 should not smooth over this point )
G00 Z5.00000 ( retract )

G00 X-31.00578 Y107.94580 ( rapid move to begin. )
G01 F300.00000
G01 Z-0.05000
G04 P0 ( dwell for no time -- G64 should not smooth over this point )
G01 F600.00000
G01 X-31.00578 Y107.94580
G01 X-31.00578 Y108.94582
G01 X-31.03252 Y109.18463
G01 X-31.10090 Y109.39322
G01 X-31.21586 Y109.59238
G01 X-31.37789 Y109.76985
G01 X-31.55579 Y109.89845
G01 X-31.63079 Y109.93243
G01 X-31.63128 Y113.08282
G01 X-31.64230 Y113.17520
G01 X-31.70580 Y113.32849
G01 X-32.00603 Y113.64500
G01 X-31.92612 Y113.88630
G01 X-31.89663 Y114.14586
G01 X-31.92178 Y114.40586
G01 X-32.00042 Y114.65495
G01 X-32.13481 Y114.89105
G01 X-32.30227 Y115.07784
G01 X-32.53041 Y115.24360
G01 X-32.76993 Y115.34784
G01 X-33.01542 Y115.39945
G01 X-33.27674 Y115.39945
G01 X-33.54212 Y115.34139
G01 X-33.77107 Y115.23885
G01 X-33.97438 Y115.09183
G01 X-34.15736 Y114.89105
G01 X-34.28802 Y114.66473
G01 X-34.36607 Y114.42630
G01 X-34.39553 Y114.14586
G01 X-34.36876 Y113.89641
G01 X-34.28327 Y113.63857
G01 X-34.15078 Y113.41345
G01 X-33.97438 Y113.22079
G01 X-33.77986 Y113.07947
G01 X-33.53237 Y112.96748
G01 X-33.27674 Y112.91315
G01 X-33.01542 Y112.91315
G01 X-32.76993 Y112.96479
G01 X-32.69866 Y112.99412
G01 X-32.58078 Y112.87627
G01 X-32.58078 Y109.93243
G01 X-32.66457 Y109.89273
G01 X-32.84184 Y109.76327
G01 X-32.99571 Y109.59238
G01 X-33.11067 Y109.39322
G01 X-33.17905 Y109.18463
G01 X-33.20580 Y108.94582
G01 X-33.20580 Y107.94580
G01 X-33.18339 Y107.72743
G01 X-33.11443 Y107.50818
G01 X-32.99571 Y107.29924
G01 X-32.84923 Y107.13574
G01 X-32.64646 Y106.98842
G01 X-32.44570 Y106.89965
G01 X-32.23110 Y106.85347
G01 X-31.98048 Y106.85347
G01 X-31.76587 Y106.89965
G01 X-31.56511 Y106.98842
G01 X-31.37789 Y107.12177
G01 X-31.22246 Y107.29111
G01 X-31.09714 Y107.50818
G01 X-31.02818 Y107.72743
G01 X-31.00578 Y107.94580
G04 P0 ( dwell for no time -- G64 should not smooth over this point )
G00 Z5.00000 ( retract )

G00 X-33.54578 Y107.94580 ( rapid move to begin. )
G01 F300.00000
G01 Z-0.05000
G04 P0 ( dwell for no time -- G64 should not smooth over this point )
G01 F600.00000
G01 X-33.54578 Y107.94580
G01 X-33.54578 Y108.94582
G01 X-33.56818 Y109.16418
G01 X-33.64565 Y109.40254
G01 X-33.75586 Y109.59238
G01 X-33.90973 Y109.76327
G01 X-34.10511 Y109.90320
G01 X-34.30587 Y109.99197
G01 X-34.53081 Y110.03977
G01 X-34.75032 Y110.04033
G01 X-34.98570 Y109.99197
G01 X-35.18646 Y109.90320
G01 X-35.38923 Y109.75588
G01 X-35.53571 Y109.59238
G01 X-35.65067 Y109.39322
G01 X-35.71905 Y109.18463
G01 X-35.74580 Y108.94582
G01 X-35.74580 Y107.94580
G01 X-35.72339 Y107.72743
G01 X-35.64592 Y107.48908
G01 X-35.53571 Y107.29924
G01 X-35.38923 Y107.13574
G01 X-35.18646 Y106.98842
G01 X-34.97559 Y106.89693
G01 X-34.76076 Y106.85184
G01 X-34.54125 Y106.85129
G01 X-34.29609 Y106.90341
G01 X-34.10511 Y106.98842
G01 X-33.91789 Y107.12177
G01 X-33.75586 Y107.29924
G01 X-33.64090 Y107.49840
G01 X-33.57252 Y107.70699
G01 X-33.54578 Y107.94580
G04 P0 ( dwell for no time -- G64 should not smooth over this point )
G00 Z5.00000 ( retract )

G00 X-36.08578 Y107.94580 ( rapid move to begin. )
G01 F300.00000
G01 Z-0.05000
G04 P0 ( dwell for no time -- G64 should not smooth over this point )
G01 F600.00000
G01 X-36.08578 Y107.94580
G01 X-36.08578 Y108.94582
G01 X-36.10818 Y109.16418
G01 X-36.18565 Y109.40254
G01 X-36.29586 Y109.59238
G01 X-36.44234 Y109.75588
G01 X-36.64511 Y109.90320
G01 X-36.84587 Y109.99197
G01 X-37.08125 Y110.04033
G01 X-37.30076 Y110.03977
G01 X-37.52570 Y109.99197
G01 X-37.74457 Y109.89273
G01 X-37.92923 Y109.75588
G01 X-38.07571 Y109.59238
G01 X-38.19067 Y109.39322
G01 X-38.25905 Y109.18463
G01 X-38.28580 Y108.94582
G01 X-38.28580 Y107.94580
G01 X-38.26339 Y107.72743
G01 X-38.18592 Y107.48908
G01 X-38.07571 Y107.29924
G01 X-37.92923 Y107.13574
G01 X-37.72646 Y106.98842
G01 X-37.51559 Y106.89693
G01 X-37.30076 Y106.85184
G01 X-37.08125 Y106.85129
G01 X-36.83609 Y106.90341
G01 X-36.64511 Y106.98842
G01 X-36.45789 Y107.12177
G01 X-36.29586 Y107.29924
G01 X-36.18090 Y107.49840
G01 X-36.11252 Y107.70699
G01 X-36.08578 Y107.94580
G04 P0 ( dwell for no time -- G64 should not smooth over this point )
G00 Z5.00000 ( retract )

G00 X-38.12634 Y112.24536 ( rapid move to begin. )
G01 F300.00000
G01 Z-0.05000
G04 P0 ( dwell for no time -- G64 should not smooth over this point )
G01 F600.00000
G01 X-38.12634 Y112.24536
G01 X-38.15910 Y112.57812
G01 X-38.26037 Y112.89682
G01 X-38.43794 Y113.20441
G01 X-38.64777 Y113.43743
G01 X-38.91701 Y113.63575
G01 X-39.23136 Y113.77751
G01 X-39.54820 Y113.84540
G01 X-39.90337 Y113.84540
G01 X-40.22021 Y113.77751
G01 X-40.53456 Y113.63575
G01 X-40.80380 Y113.43743
G01 X-41.01363 Y113.20441
G01 X-41.19120 Y112.89682
G01 X-41.29247 Y112.57812
G01 X-41.32524 Y112.24536
G01 X-41.28810 Y111.91305
G01 X-41.18747 Y111.60502
G01 X-41.02021 Y111.31536
G01 X-40.78826 Y111.06019
G01 X-40.51645 Y110.86543
G01 X-40.20078 Y110.72943
G01 X-40.20081 Y109.93243
G01 X-40.28457 Y109.89273
G01 X-40.46184 Y109.76327
G01 X-40.61571 Y109.59238
G01 X-40.73067 Y109.39322
G01 X-40.79905 Y109.18463
G01 X-40.82580 Y108.94582
G01 X-40.82580 Y107.94580
G01 X-40.79905 Y107.70699
G01 X-40.73067 Y107.49840
G01 X-40.61571 Y107.29924
G01 X-40.46923 Y107.13574
G01 X-40.28457 Y106.99889
G01 X-40.06570 Y106.89965
G01 X-39.84076 Y106.85184
G01 X-39.61081 Y106.85184
G01 X-39.38587 Y106.89965
G01 X-39.18511 Y106.98842
G01 X-38.98234 Y107.13574
G01 X-38.83586 Y107.29924
G01 X-38.71714 Y107.50818
G01 X-38.64818 Y107.72743
G01 X-38.62578 Y107.94580
G01 X-38.62578 Y108.94582
G01 X-38.64818 Y109.16418
G01 X-38.72090 Y109.39322
G01 X-38.83586 Y109.59238
G01 X-38.98973 Y109.76327
G01 X-39.16700 Y109.89273
G01 X-39.25079 Y109.93243
G01 X-39.25079 Y110.72943
G01 X-38.91701 Y110.87587
G01 X-38.64777 Y111.07419
G01 X-38.43137 Y111.31536
G01 X-38.26037 Y111.61480
G01 X-38.15910 Y111.93350
G01 X-38.12634 Y112.24536
G04 P0 ( dwell for no time -- G64 should not smooth over this point )
G00 Z5.00000 ( retract )

G00 X-41.16578 Y107.94580 ( rapid move to begin. )
G01 F300.00000
G01 Z-0.05000
G04 P0 ( dwell for no time -- G64 should not smooth over this point )
G01 F600.00000
G01 X-41.16578 Y107.94580
G01 X-41.16578 Y108.94582
G01 X-41.18818 Y109.16418
G01 X-41.26565 Y109.40254
G01 X-41.38246 Y109.60051
G01 X-41.52973 Y109.76327
G01 X-41.72511 Y109.90320
G01 X-41.92587 Y109.99197
G01 X-42.15081 Y110.03977
G01 X-42.37032 Y110.04033
G01 X-42.60570 Y109.99197
G01 X-42.80646 Y109.90320
G01 X-43.00923 Y109.75588
G01 X-43.15571 Y109.59238
G01 X-43.27067 Y109.39322
G01 X-43.33905 Y109.18463
G01 X-43.36580 Y108.94582
G01 X-43.36580 Y107.94580
G01 X-43.34339 Y107.72743
G01 X-43.26592 Y107.48908
G01 X-43.15571 Y107.29924
G01 X-43.00923 Y107.13574
G01 X-42.80646 Y106.98842
G01 X-42.59559 Y106.89693
G01 X-42.38076 Y106.85184
G01 X-42.16125 Y106.85129
G01 X-41.91609 Y106.90341
G01 X-41.72511 Y106.98842
G01 X-41.53789 Y107.12177
G01 X-41.37586 Y107.29924
G01 X-41.26090 Y107.49840
G01 X-41.19252 Y107.70699
G01 X-41.16578 Y107.94580
G04 P0 ( dwell for no time -- G64 should not smooth over this point )
G00 Z5.00000 ( retract )

G00 X-43.70578 Y107.94580 ( rapid move to begin. )
G01 F300.00000
G01 Z-0.05000
G04 P0 ( dwell for no time -- G64 should not smooth over this point )
G01 F600.00000
G01 X-43.70578 Y107.94580
G01 X-43.70578 Y108.94582
G01 X-43.72818 Y109.16418
G01 X-43.80565 Y109.40254
G01 X-43.91586 Y109.59238
G01 X-44.06234 Y109.75588
G01 X-44.26511 Y109.90320
G01 X-44.46587 Y109.99197
G01 X-44.70125 Y110.04033
G01 X-44.92076 Y110.03977
G01 X-45.14570 Y109.99197
G01 X-45.36457 Y109.89273
G01 X-45.54923 Y109.75588
G01 X-45.69571 Y109.59238
G01 X-45.81067 Y109.39322
G01 X-45.87905 Y109.18463
G01 X-45.90580 Y108.94582
G01 X-45.90580 Y107.94580
G01 X-45.88339 Y107.72743
G01 X-45.80592 Y107.48908
G01 X-45.69571 Y107.29924
G01 X-45.54923 Y107.13574
G01 X-45.34646 Y106.98842
G01 X-45.13559 Y106.89693
G01 X-44.92076 Y106.85184
G01 X-44.70125 Y106.85129
G01 X-44.45609 Y106.90341
G01 X-44.26511 Y106.98842
G01 X-44.07789 Y107.12177
G01 X-43.91586 Y107.29924
G01 X-43.80090 Y107.49840
G01 X-43.73252 Y107.70699
G01 X-43.70578 Y107.94580
G04 P0 ( dwell for no time -- G64 should not smooth over this point )
G00 Z5.00000 ( retract )

G00 X-46.24578 Y107.94580 ( rapid move to begin. )
G01 F300.00000
G01 Z-0.05000
G04 P0 ( dwell for no time -- G64 should not smooth over this point )
G01 F600.00000
G01 X-46.24578 Y107.94580
G01 X-46.24578 Y108.94582
G01 X-46.26818 Y109.16418
G01 X-46.34565 Y109.40254
G01 X-46.45586 Y109.59238
G01 X-46.60973 Y109.76327
G01 X-46.80511 Y109.90320
G01 X-47.00587 Y109.99197
G01 X-47.23081 Y110.03977
G01 X-47.45032 Y110.04033
G01 X-47.68570 Y109.99197
G01 X-47.88646 Y109.90320
G01 X-48.08923 Y109.75588
G01 X-48.23571 Y109.59238
G01 X-48.35067 Y109.39322
G01 X-48.41905 Y109.18463
G01 X-48.44580 Y108.94582
G01 X-48.44580 Y107.94580
G01 X-48.42339 Y107.72743
G01 X-48.34592 Y107.48908
G01 X-48.23571 Y107.29924
G01 X-48.08923 Y107.13574
G01 X-47.88646 Y106.98842
G01 X-47.67559 Y106.89693
G01 X-47.46076 Y106.85184
G01 X-47.24125 Y106.85129
G01 X-46.99609 Y106.90341
G01 X-46.80511 Y106.98842
G01 X-46.61789 Y107.12177
G01 X-46.45586 Y107.29924
G01 X-46.34090 Y107.49840
G01 X-46.27252 Y107.70699
G01 X-46.24578 Y107.94580
G04 P0 ( dwell for no time -- G64 should not smooth over this point )
G00 Z5.00000 ( retract )

G00 X-48.78578 Y107.94580 ( rapid move to begin. )
G01 F300.00000
G01 Z-0.05000
G04 P0 ( dwell for no time -- G64 should not smooth over this point )
G01 F600.00000
G01 X-48.78578 Y107.94580
G01 X-48.78578 Y108.94582
G01 X-48.80818 Y109.16418
G01 X-48.88565 Y109.40254
G01 X-48.99586 Y109.59238
G01 X-49.14234 Y109.75588
G01 X-49.34511 Y109.90320
G01 X-49.54587 Y109.99197
G01 X-49.78125 Y110.04033
G01 X-50.00076 Y110.03977
G01 X-50.22570 Y109.99197
G01 X-50.44457 Y109.89273
G01 X-50.62923 Y109.75588
G01 X-50.77571 Y109.59238
G01 X-50.89067 Y109.39322
G01 X-50.95905 Y109.18463
G01 X-50.98580 Y108.94582
G01 X-50.98580 Y107.94580
G01 X-50.96339 Y107.72743
G01 X-50.88592 Y107.48908
G01 X-50.77571 Y107.29924
G01 X-50.62923 Y107.13574
G01 X-50.42646 Y106.98842
G01 X-50.21559 Y106.89693
G01 X-50.00076 Y106.85184
G01 X-49.78125 Y106.85129
G01 X-49.53609 Y106.90341
G01 X-49.34511 Y106.98842
G01 X-49.15789 Y107.12177
G01 X-48.99586 Y107.29924
G01 X-48.88090 Y107.49840
G01 X-48.81252 Y107.70699
G01 X-48.78578 Y107.94580
G04 P0 ( dwell for no time -- G64 should not smooth over this point )
G00 Z5.00000 ( retract )

G00 X-51.32578 Y107.94580 ( rapid move to begin. )
G01 F300.00000
G01 Z-0.05000
G04 P0 ( dwell for no time -- G64 should not smooth over this point )
G01 F600.00000
G01 X-51.32578 Y107.94580
G01 X-51.32578 Y108.94582
G01 X-51.34818 Y109.16418
G01 X-51.42565 Y109.40254
G01 X-51.53586 Y109.59238
G01 X-51.68973 Y109.76327
G01 X-51.88511 Y109.90320
G01 X-52.08587 Y109.99197
G01 X-52.31081 Y110.03977
G01 X-52.53032 Y110.04033
G01 X-52.76570 Y109.99197
G01 X-52.96646 Y109.90320
G01 X-53.16923 Y109.75588
G01 X-53.31571 Y109.59238
G01 X-53.43067 Y109.39322
G01 X-53.49905 Y109.18463
G01 X-53.52580 Y108.94582
G01 X-53.52580 Y107.94580
G01 X-53.50339 Y107.72743
G01 X-53.42592 Y107.48908
G01 X-53.31571 Y107.29924
G01 X-53.16923 Y107.13574
G01 X-52.96646 Y106.98842
G01 X-52.75559 Y106.89693
G01 X-52.54076 Y106.85184
G01 X-52.32125 Y106.85129
G01 X-52.07609 Y106.90341
G01 X-51.88511 Y106.98842
G01 X-51.69789 Y107.12177
G01 X-51.53586 Y107.29924
G01 X-51.42090 Y107.49840
G01 X-51.35252 Y107.70699
G01 X-51.32578 Y107.94580
G04 P0 ( dwell for no time -- G64 should not smooth over this point )
G00 Z5.00000 ( retract )

G00 X-54.88632 Y108.43536 ( rapid move to begin. )
G01 F300.00000
G01 Z-0.05000
G04 P0 ( dwell for no time -- G64 should not smooth over this point )
G01 F600.00000
G01 X-54.88632 Y108.43536
G01 X-54.91528 Y108.72649
G01 X-54.99874 Y108.98514
G01 X-55.13791 Y109.23053
G01 X-55.32506 Y109.44165
G01 X-55.55201 Y109.60924
G01 X-55.80885 Y109.72598
G01 X-56.10512 Y109.78897
G01 X-56.38723 Y109.78676
G01 X-56.65297 Y109.72974
G01 X-56.91957 Y109.60924
G01 X-57.14652 Y109.44165
G01 X-57.32795 Y109.23932
G01 X-57.46907 Y108.99489
G01 X-57.55358 Y108.73660
G01 X-57.58525 Y108.45626
G01 X-57.55792 Y108.17546
G01 X-57.46907 Y107.89672
G01 X-57.32795 Y107.65230
G01 X-57.14652 Y107.44996
G01 X-56.91957 Y107.28237
G01 X-56.66272 Y107.16564
G01 X-56.36646 Y107.10264
G01 X-56.08434 Y107.10485
G01 X-55.81860 Y107.16188
G01 X-55.55201 Y107.28237
G01 X-55.33245 Y107.44257
G01 X-55.15020 Y107.64417
G01 X-55.00725 Y107.88738
G01 X-54.91528 Y108.16513
G01 X-54.88632 Y108.43536
G04 P0 ( dwell for no time -- G64 should not smooth over this point )
G00 Z5.00000 ( retract )

G00 X-38.12634 Y127.48536 ( rapid move to begin. )
G01 F300.00000
G01 Z-0.05000
G04 P0 ( dwell for no time -- G64 should not smooth over this point )
G01 F600.00000
G01 X-38.12634 Y127.48536
G01 X-38.16075 Y127.16316
G01 X-38.26037 Y126.85480
G01 X-38.42565 Y126.56412
G01 X-38.64777 Y126.31419
G01 X-38.93512 Y126.10543
G01 X-39.23136 Y125.97411
G01 X-39.54820 Y125.90621
G01 X-39.88257 Y125.90403
G01 X-40.22021 Y125.97411
G01 X-40.53456 Y126.11587
G01 X-40.80380 Y126.31419
G01 X-41.02021 Y126.55536
G01 X-41.18272 Y126.83570
G01 X-41.28810 Y127.15305
G01 X-41.32524 Y127.48536
G01 X-41.29247 Y127.81812
G01 X-41.19120 Y128.13682
G01 X-41.13692 Y128.23519
G01 X-46.27252 Y133.37079
G01 X-55.90578 Y133.37082
G01 X-55.90771 Y132.82629
G01 X-55.93509 Y132.77511
G01 X-55.98627 Y132.74773
G01 X-59.02530 Y132.74773
G01 X-59.08893 Y132.79025
G01 X-59.10580 Y132.84580
G01 X-59.09818 Y134.88407
G01 X-59.06135 Y134.92895
G01 X-59.00580 Y134.94582
G01 X-55.98627 Y134.94389
G01 X-55.93509 Y134.91651
G01 X-55.90771 Y134.86533
G01 X-55.90578 Y134.32080
G01 X-46.07580 Y134.32080
G01 X-45.90326 Y134.28796
G01 X-45.73991 Y134.18169
G01 X-40.46662 Y128.90839
G01 X-40.21010 Y129.02020
G01 X-39.90337 Y129.08540
G01 X-39.55854 Y129.08706
G01 X-39.22158 Y129.01375
G01 X-38.92578 Y128.88144
G01 X-38.66332 Y128.69143
G01 X-38.43137 Y128.43626
G01 X-38.26886 Y128.15592
G01 X-38.16075 Y127.82846
G01 X-38.12634 Y127.48536
G04 P0 ( dwell for no time -- G64 should not smooth over this point )
G00 Z5.00000 ( retract )

G00 X-47.01634 Y121.39535 ( rapid move to begin. )
G01 F300.00000
G01 Z-0.05000
G04 P0 ( dwell for no time -- G64 should not smooth over this point )
G01 F600.00000
G01 X-47.01634 Y121.39535
G01 X-47.05347 Y121.06304
G01 X-47.15411 Y120.75504
G01 X-47.32137 Y120.46536
G01 X-47.53777 Y120.22418
G01 X-47.80701 Y120.02586
G01 X-48.11158 Y119.88786
G01 X-48.45901 Y119.81402
G01 X-48.78303 Y119.81458
G01 X-49.10010 Y119.88141
G01 X-49.42456 Y120.02586
G01 X-49.69380 Y120.22418
G01 X-49.91021 Y120.46536
G01 X-50.07747 Y120.75504
G01 X-50.13515 Y120.93081
G01 X-55.14048 Y120.93081
G01 X-55.33113 Y120.97117
G01 X-55.47637 Y121.06993
G01 X-62.69723 Y128.29082
G01 X-63.63916 Y128.29079
G01 X-63.67886 Y128.20702
G01 X-63.80833 Y128.02976
G01 X-63.98801 Y127.87019
G01 X-64.18816 Y127.75716
G01 X-64.38696 Y127.69254
G01 X-64.62578 Y127.66580
G01 X-65.62580 Y127.66580
G01 X-65.85450 Y127.68985
G01 X-66.08252 Y127.76567
G01 X-66.28048 Y127.88249
G01 X-66.44325 Y128.02976
G01 X-66.57271 Y128.20702
G01 X-66.61241 Y128.29079
G01 X-67.83405 Y128.29849
G01 X-67.94175 Y128.33115
G01 X-68.02287 Y128.37672
G01 X-68.22724 Y128.57022
G01 X-69.28853 Y128.57019
G01 X-69.36173 Y128.46872
G01 X-69.50468 Y128.34212
G01 X-69.66176 Y128.25399
G01 X-69.83372 Y128.20042
G01 X-70.00260 Y128.18320
G01 X-71.52660 Y128.18320
G01 X-71.70580 Y128.20204
G01 X-71.86742 Y128.25399
G01 X-72.02449 Y128.34212
G01 X-72.16744 Y128.46872
G01 X-72.24064 Y128.57022
G01 X-73.42370 Y128.57070
G01 X-73.51608 Y128.58172
G01 X-73.66937 Y128.64522
G01 X-73.74976 Y128.70933
G01 X-75.51793 Y130.47750
G01 X-96.28307 Y130.47750
G01 X-124.72662 Y102.03392
G01 X-124.87183 Y101.93517
G01 X-125.06248 Y101.89481
G01 X-126.20117 Y101.89481
G01 X-126.24087 Y101.81104
G01 X-126.37033 Y101.63377
G01 X-126.53309 Y101.48648
G01 X-126.73106 Y101.36966
G01 X-126.94897 Y101.29656
G01 X-127.18778 Y101.26981
G01 X-128.18778 Y101.26981
G01 X-128.42661 Y101.29656
G01 X-128.62542 Y101.36115
G01 X-128.82557 Y101.47418
G01 X-129.00525 Y101.63377
G01 X-129.13471 Y101.81104
G01 X-129.17441 Y101.89481
G01 X-130.32290 Y101.89529
G01 X-130.48561 Y101.92765
G01 X-130.64170 Y102.02734
G01 X-130.74774 Y102.17916
G01 X-130.78808 Y102.36981
G01 X-130.78808 Y107.52337
G01 X-134.99696 Y111.73223
G01 X-135.24336 Y111.62311
G01 X-135.56020 Y111.55521
G01 X-135.91537 Y111.55521
G01 X-136.23221 Y111.62311
G01 X-136.52845 Y111.75443
G01 X-136.80838 Y111.95577
G01 X-137.03792 Y112.21312
G01 X-137.19947 Y112.49402
G01 X-137.30010 Y112.80205
G01 X-137.33724 Y113.13436
G01 X-137.30447 Y113.46712
G01 X-137.19472 Y113.80492
G01 X-137.02563 Y114.09341
G01 X-136.80838 Y114.33385
G01 X-136.54656 Y114.52475
G01 X-136.23221 Y114.66651
G01 X-135.89457 Y114.73659
G01 X-135.56020 Y114.73440
G01 X-135.25347 Y114.66920
G01 X-134.92901 Y114.52475
G01 X-134.66719 Y114.33385
G01 X-134.43765 Y114.07649
G01 X-134.27611 Y113.79560
G01 X-134.17547 Y113.48757
G01 X-134.13778 Y113.14480
G01 X-134.17110 Y112.82250
G01 X-134.27237 Y112.50380
G01 X-134.32665 Y112.40543
G01 X-129.92399 Y107.99190
G01 X-129.87093 Y107.89264
G01 X-129.83809 Y107.72012
G01 X-129.83809 Y102.84482
G01 X-129.17441 Y102.84482
G01 X-129.13471 Y102.92859
G01 X-129.01183 Y103.09772
G01 X-128.82557 Y103.26544
G01 X-128.62542 Y103.37847
G01 X-128.42661 Y103.44306
G01 X-128.18778 Y103.46981
G01 X-127.18778 Y103.46981
G01 X-126.94897 Y103.44306
G01 X-126.73106 Y103.36996
G01 X-126.54122 Y103.25973
G01 X-126.37033 Y103.10585
G01 X-126.23515 Y102.91980
G01 X-126.20117 Y102.84479
G01 X-125.25923 Y102.84482
G01 X-96.81565 Y131.28837
G01 X-96.67044 Y131.38715
G01 X-96.48959 Y131.42703
G01 X-75.31138 Y131.42703
G01 X-75.13053 Y131.38715
G01 X-74.98532 Y131.28837
G01 X-73.21712 Y129.52020
G01 X-72.24064 Y129.52020
G01 X-72.16744 Y129.62170
G01 X-72.02449 Y129.74829
G01 X-71.86742 Y129.83643
G01 X-71.69546 Y129.89000
G01 X-71.52660 Y129.90720
G01 X-70.00260 Y129.90720
G01 X-69.82338 Y129.88837
G01 X-69.64266 Y129.82792
G01 X-69.48779 Y129.73600
G01 X-69.36173 Y129.62170
G01 X-69.28853 Y129.52020
G01 X-67.94754 Y129.51253
G01 X-67.83984 Y129.47987
G01 X-67.75871 Y129.43430
G01 X-67.55434 Y129.24080
G01 X-66.61241 Y129.24080
G01 X-66.57843 Y129.31581
G01 X-66.44325 Y129.50186
G01 X-66.28048 Y129.64913
G01 X-66.08252 Y129.76595
G01 X-65.86461 Y129.83907
G01 X-65.62580 Y129.86582
G01 X-64.62578 Y129.86582
G01 X-64.40741 Y129.84342
G01 X-64.18816 Y129.77446
G01 X-63.97109 Y129.64913
G01 X-63.80833 Y129.50186
G01 X-63.67886 Y129.32460
G01 X-63.63916 Y129.24080
G01 X-62.49068 Y129.24032
G01 X-62.30983 Y129.20047
G01 X-62.17188 Y129.10826
G01 X-54.94373 Y121.88080
G01 X-50.13515 Y121.88082
G01 X-50.07272 Y122.06591
G01 X-49.91021 Y122.34628
G01 X-49.69380 Y122.58745
G01 X-49.42456 Y122.78575
G01 X-49.10010 Y122.93020
G01 X-48.78303 Y122.99705
G01 X-48.44854 Y122.99705
G01 X-48.12136 Y122.92750
G01 X-47.82512 Y122.79621
G01 X-47.54519 Y122.59484
G01 X-47.32794 Y122.35440
G01 X-47.15411 Y122.05659
G01 X-47.05347 Y121.74859
G01 X-47.01634 Y121.39535
G04 P0 ( dwell for no time -- G64 should not smooth over this point )
G00 Z5.00000 ( retract )

G00 X-55.91126 Y128.66128 ( rapid move to begin. )
G01 F300.00000
G01 Z-0.05000
G04 P0 ( dwell for no time -- G64 should not smooth over this point )
G01 F600.00000
G01 X-55.91126 Y128.66128
G01 X-55.91345 Y128.89112
G01 X-55.95963 Y129.10572
G01 X-56.05315 Y129.31581
G01 X-56.19572 Y129.50925
G01 X-56.36801 Y129.66143
G01 X-56.56816 Y129.77446
G01 X-56.76696 Y129.83907
G01 X-56.99534 Y129.86526
G01 X-58.01624 Y129.86526
G01 X-58.24461 Y129.83907
G01 X-58.46252 Y129.76595
G01 X-58.64357 Y129.66143
G01 X-58.81586 Y129.50925
G01 X-58.95271 Y129.32460
G01 X-59.04819 Y129.11550
G01 X-59.09975 Y128.88078
G01 X-59.09975 Y128.65084
G01 X-59.05467 Y128.43600
G01 X-58.96318 Y128.22513
G01 X-58.82325 Y128.02976
G01 X-58.66048 Y127.88249
G01 X-58.46252 Y127.76567
G01 X-58.23450 Y127.68985
G01 X-58.01624 Y127.66636
G01 X-56.99534 Y127.66636
G01 X-56.77707 Y127.68985
G01 X-56.54906 Y127.76567
G01 X-56.36801 Y127.87019
G01 X-56.19572 Y128.02236
G01 X-56.05886 Y128.20702
G01 X-55.95691 Y128.43600
G01 X-55.91126 Y128.66128
G04 P0 ( dwell for no time -- G64 should not smooth over this point )
G00 Z5.00000 ( retract )

G00 X-63.53126 Y131.20128 ( rapid move to begin. )
G01 F300.00000
G01 Z-0.05000
G04 P0 ( dwell for no time -- G64 should not smooth over this point )
G01 F600.00000
G01 X-63.53126 Y131.20128
G01 X-63.53345 Y131.43112
G01 X-63.57963 Y131.64572
G01 X-63.66840 Y131.84649
G01 X-63.80833 Y132.04186
G01 X-63.97109 Y132.18913
G01 X-64.16906 Y132.30595
G01 X-64.39707 Y132.38177
G01 X-64.61534 Y132.40526
G01 X-65.63624 Y132.40526
G01 X-65.85450 Y132.38177
G01 X-66.08252 Y132.30595
G01 X-66.26357 Y132.20143
G01 X-66.43586 Y132.04925
G01 X-66.57271 Y131.86460
G01 X-66.66819 Y131.65550
G01 X-66.71975 Y131.42078
G01 X-66.71975 Y131.19084
G01 X-66.67467 Y130.97600
G01 X-66.58318 Y130.76513
G01 X-66.44983 Y130.57791
G01 X-66.27236 Y130.41588
G01 X-66.08252 Y130.30567
G01 X-65.85450 Y130.22985
G01 X-65.63624 Y130.20636
G01 X-64.61534 Y130.20636
G01 X-64.39707 Y130.22985
G01 X-64.16906 Y130.30567
G01 X-63.98801 Y130.41019
G01 X-63.81572 Y130.56236
G01 X-63.67886 Y130.74702
G01 X-63.57691 Y130.97600
G01 X-63.53126 Y131.20128
G04 P0 ( dwell for no time -- G64 should not smooth over this point )
G00 Z5.00000 ( retract )

G00 X-63.53126 Y133.74128 ( rapid move to begin. )
G01 F300.00000
G01 Z-0.05000
G04 P0 ( dwell for no time -- G64 should not smooth over this point )
G01 F600.00000
G01 X-63.53126 Y133.74128
G01 X-63.53345 Y133.97112
G01 X-63.57963 Y134.18572
G01 X-63.67886 Y134.40460
G01 X-63.81572 Y134.58925
G01 X-63.97922 Y134.73574
G01 X-64.18816 Y134.85446
G01 X-64.39707 Y134.92177
G01 X-64.62578 Y134.94582
G01 X-65.62580 Y134.94582
G01 X-65.85450 Y134.92177
G01 X-66.06342 Y134.85446
G01 X-66.27236 Y134.73574
G01 X-66.44983 Y134.57371
G01 X-66.57843 Y134.39581
G01 X-66.61241 Y134.32080
G01 X-67.83405 Y134.31313
G01 X-67.94175 Y134.28047
G01 X-68.02287 Y134.23490
G01 X-68.22724 Y134.04140
G01 X-69.28853 Y134.04140
G01 X-69.36173 Y134.14290
G01 X-69.48779 Y134.25720
G01 X-69.64266 Y134.34912
G01 X-69.81327 Y134.40686
G01 X-70.00260 Y134.42842
G01 X-71.52660 Y134.42842
G01 X-71.69546 Y134.41120
G01 X-71.86742 Y134.35763
G01 X-72.02449 Y134.26949
G01 X-72.16744 Y134.14290
G01 X-72.24064 Y134.04143
G01 X-73.21715 Y134.04140
G01 X-76.34940 Y137.16281
G01 X-76.44866 Y137.21587
G01 X-76.61138 Y137.24823
G01 X-77.63593 Y137.24871
G01 X-80.81878 Y140.43156
G01 X-80.68937 Y140.66008
G01 X-80.56359 Y141.04896
G01 X-80.52033 Y141.45536
G01 X-80.56196 Y141.87232
G01 X-80.69788 Y142.29064
G01 X-80.90271 Y142.64433
G01 X-81.19133 Y142.96239
G01 X-81.53161 Y143.20694
G01 X-81.90522 Y143.37268
G01 X-82.30486 Y143.45820
G01 X-82.72391 Y143.46038
G01 X-83.13425 Y143.37539
G01 X-83.53608 Y143.19650
G01 X-83.87379 Y142.94842
G01 X-84.14687 Y142.64433
G01 X-84.36020 Y142.27154
G01 X-84.48598 Y141.88266
G01 X-84.52924 Y141.47626
G01 X-84.48598 Y141.04896
G01 X-84.36020 Y140.66008
G01 X-84.15256 Y140.29608
G01 X-83.85825 Y139.96923
G01 X-83.53608 Y139.73512
G01 X-83.15414 Y139.56270
G01 X-82.72391 Y139.47124
G01 X-82.30486 Y139.47342
G01 X-81.91533 Y139.55622
G01 X-81.48591 Y139.75518
G01 X-78.16128 Y136.43124
G01 X-78.02334 Y136.33906
G01 X-77.91564 Y136.30640
G01 X-76.81793 Y136.29870
G01 X-73.74976 Y133.23053
G01 X-73.58641 Y133.12426
G01 X-73.41390 Y133.09142
G01 X-72.24064 Y133.09142
G01 X-72.16744 Y132.98992
G01 X-72.02449 Y132.86332
G01 X-71.86742 Y132.77519
G01 X-71.69546 Y132.72162
G01 X-71.52660 Y132.70440
G01 X-70.00260 Y132.70440
G01 X-69.82338 Y132.72324
G01 X-69.64266 Y132.78370
G01 X-69.48779 Y132.87562
G01 X-69.36173 Y132.98992
G01 X-69.28853 Y133.09142
G01 X-67.94754 Y133.09909
G01 X-67.83984 Y133.13175
G01 X-67.75871 Y133.17732
G01 X-67.55434 Y133.37082
G01 X-66.61241 Y133.37082
G01 X-66.57843 Y133.29581
G01 X-66.44325 Y133.10976
G01 X-66.28048 Y132.96249
G01 X-66.08252 Y132.84567
G01 X-65.86461 Y132.77254
G01 X-65.62580 Y132.74580
G01 X-64.61534 Y132.74636
G01 X-64.39707 Y132.76985
G01 X-64.18816 Y132.83716
G01 X-63.98801 Y132.95019
G01 X-63.81572 Y133.10236
G01 X-63.66840 Y133.30513
G01 X-63.57691 Y133.51600
G01 X-63.53126 Y133.74128
G04 P0 ( dwell for no time -- G64 should not smooth over this point )
G00 Z5.00000 ( retract )

G00 X-57.67578 Y141.31012 ( rapid move to begin. )
G01 F300.00000
G01 Z-0.05000
G04 P0 ( dwell for no time -- G64 should not smooth over this point )
G01 F600.00000
G01 X-57.67578 Y141.31012
G01 X-57.67578 Y142.89150
G01 X-57.69983 Y143.12020
G01 X-57.76714 Y143.32914
G01 X-57.89246 Y143.54621
G01 X-58.03234 Y143.70156
G01 X-58.21700 Y143.83844
G01 X-58.43587 Y143.93767
G01 X-58.67125 Y143.98604
G01 X-58.88032 Y143.98604
G01 X-59.10559 Y143.94039
G01 X-59.31646 Y143.84890
G01 X-59.50369 Y143.71555
G01 X-59.65911 Y143.54621
G01 X-59.77592 Y143.34824
G01 X-59.85174 Y143.12020
G01 X-59.87580 Y142.89150
G01 X-59.87580 Y142.57580
G01 X-60.91090 Y142.57532
G01 X-61.09172 Y142.53547
G01 X-61.22969 Y142.44326
G01 X-61.33574 Y142.29145
G01 X-61.36840 Y142.18378
G01 X-61.37610 Y141.35747
G01 X-63.83685 Y138.89671
G01 X-74.58494 Y138.89671
G01 X-76.11978 Y140.43156
G01 X-75.99037 Y140.66008
G01 X-75.86731 Y141.03885
G01 X-75.82133 Y141.47626
G01 X-75.86459 Y141.88266
G01 X-75.99037 Y142.27154
G01 X-76.20371 Y142.64433
G01 X-76.47678 Y142.94842
G01 X-76.81450 Y143.19650
G01 X-77.20622 Y143.37268
G01 X-77.60586 Y143.45820
G01 X-78.02491 Y143.46038
G01 X-78.44536 Y143.37268
G01 X-78.81897 Y143.20694
G01 X-79.15925 Y142.96239
G01 X-79.44787 Y142.64433
G01 X-79.65269 Y142.29064
G01 X-79.78698 Y141.88266
G01 X-79.83024 Y141.47626
G01 X-79.78698 Y141.04896
G01 X-79.65269 Y140.64098
G01 X-79.44129 Y140.27916
G01 X-79.17479 Y139.98320
G01 X-78.83708 Y139.73512
G01 X-78.43525 Y139.55622
G01 X-78.04571 Y139.47342
G01 X-77.62666 Y139.47124
G01 X-77.20622 Y139.55894
G01 X-76.78691 Y139.75518
G01 X-75.11029 Y138.07924
G01 X-74.95423 Y137.97957
G01 X-74.78169 Y137.94670
G01 X-63.55712 Y137.95440
G01 X-63.44945 Y137.98706
G01 X-63.30421 Y138.08584
G01 X-60.55863 Y140.83212
G01 X-60.46645 Y140.97006
G01 X-60.43378 Y141.07776
G01 X-60.42609 Y141.62582
G01 X-59.87580 Y141.62582
G01 X-59.87580 Y141.31012
G01 X-59.85174 Y141.08142
G01 X-59.78443 Y140.87248
G01 X-59.66571 Y140.66354
G01 X-59.51923 Y140.50006
G01 X-59.33457 Y140.36318
G01 X-59.11570 Y140.26394
G01 X-58.90110 Y140.21777
G01 X-58.67125 Y140.21558
G01 X-58.43587 Y140.26394
G01 X-58.23511 Y140.35272
G01 X-58.04789 Y140.48607
G01 X-57.88586 Y140.66354
G01 X-57.77565 Y140.85338
G01 X-57.69983 Y141.08142
G01 X-57.67578 Y141.31012
G04 P0 ( dwell for no time -- G64 should not smooth over this point )
G00 Z5.00000 ( retract )

G00 X-71.12233 Y141.45536 ( rapid move to begin. )
G01 F300.00000
G01 Z-0.05000
G04 P0 ( dwell for no time -- G64 should not smooth over this point )
G01 F600.00000
G01 X-71.12233 Y141.45536
G01 X-71.16559 Y141.88266
G01 X-71.29137 Y142.27154
G01 X-71.51128 Y142.65246
G01 X-71.79333 Y142.96239
G01 X-72.13361 Y143.20694
G01 X-72.50722 Y143.37268
G01 X-72.92766 Y143.46038
G01 X-73.34671 Y143.45820
G01 X-73.74636 Y143.37268
G01 X-74.13808 Y143.19650
G01 X-74.47579 Y142.94842
G01 X-74.74887 Y142.64433
G01 X-74.96220 Y142.27154
G01 X-75.08798 Y141.88266
G01 X-75.13124 Y141.47626
G01 X-75.08798 Y141.04896
G01 X-74.96220 Y140.66008
G01 X-74.74229 Y140.27916
G01 X-74.46025 Y139.96923
G01 X-74.11997 Y139.72468
G01 X-73.74636 Y139.55894
G01 X-73.32591 Y139.47124
G01 X-72.90686 Y139.47342
G01 X-72.50722 Y139.55894
G01 X-72.11550 Y139.73512
G01 X-71.77778 Y139.98320
G01 X-71.50471 Y140.28729
G01 X-71.29137 Y140.66008
G01 X-71.16559 Y141.04896
G01 X-71.12233 Y141.45536
G04 P0 ( dwell for no time -- G64 should not smooth over this point )
G00 Z5.00000 ( retract )

G00 X-75.64717 Y133.48677 ( rapid move to begin. )
G01 F300.00000
G01 Z-0.05000
G04 P0 ( dwell for no time -- G64 should not smooth over this point )
G01 F600.00000
G01 X-75.64717 Y133.48677
G01 X-75.64935 Y133.66685
G01 X-75.68516 Y133.83279
G01 X-75.75372 Y133.98809
G01 X-75.86439 Y134.14321
G01 X-76.00708 Y134.26949
G01 X-76.16416 Y134.35763
G01 X-76.33612 Y134.41120
G01 X-76.50500 Y134.42842
G01 X-78.02900 Y134.42842
G01 X-78.19786 Y134.41120
G01 X-78.36982 Y134.35763
G01 X-78.52689 Y134.26949
G01 X-78.67617 Y134.13508
G01 X-78.78026 Y133.98809
G01 X-78.84505 Y133.84255
G01 X-78.88681 Y133.64605
G01 X-78.88628 Y133.47630
G01 X-78.84505 Y133.29027
G01 X-78.76979 Y133.12662
G01 X-78.66959 Y132.98961
G01 X-78.52689 Y132.86332
G01 X-78.36982 Y132.77519
G01 X-78.20820 Y132.72324
G01 X-78.02900 Y132.70440
G01 X-76.50500 Y132.70440
G01 X-76.32578 Y132.72324
G01 X-76.16416 Y132.77519
G01 X-76.00708 Y132.86332
G01 X-75.85781 Y132.99774
G01 X-75.75372 Y133.14473
G01 X-75.68892 Y133.29027
G01 X-75.64717 Y133.48677
G04 P0 ( dwell for no time -- G64 should not smooth over this point )
G00 Z5.00000 ( retract )

G00 X-75.64717 Y128.96557 ( rapid move to begin. )
G01 F300.00000
G01 Z-0.05000
G04 P0 ( dwell for no time -- G64 should not smooth over this point )
G01 F600.00000
G01 X-75.64717 Y128.96557
G01 X-75.64935 Y129.14565
G01 X-75.68516 Y129.31159
G01 X-75.75372 Y129.46689
G01 X-75.86439 Y129.62201
G01 X-76.00708 Y129.74829
G01 X-76.16416 Y129.83643
G01 X-76.32578 Y129.88837
G01 X-76.50500 Y129.90720
G01 X-78.02900 Y129.90720
G01 X-78.20820 Y129.88837
G01 X-78.36982 Y129.83643
G01 X-78.52689 Y129.74829
G01 X-78.67617 Y129.61388
G01 X-78.78026 Y129.46689
G01 X-78.84505 Y129.32135
G01 X-78.88681 Y129.12485
G01 X-78.88628 Y128.95510
G01 X-78.84505 Y128.76907
G01 X-78.76979 Y128.60542
G01 X-78.66959 Y128.46841
G01 X-78.52689 Y128.34212
G01 X-78.36982 Y128.25399
G01 X-78.20820 Y128.20204
G01 X-78.02900 Y128.18320
G01 X-76.50500 Y128.18320
G01 X-76.32578 Y128.20204
G01 X-76.16416 Y128.25399
G01 X-76.00708 Y128.34212
G01 X-75.85781 Y128.47654
G01 X-75.75372 Y128.62353
G01 X-75.68892 Y128.76907
G01 X-75.64717 Y128.96557
G04 P0 ( dwell for no time -- G64 should not smooth over this point )
G00 Z5.00000 ( retract )

G00 X-128.53634 Y124.20535 ( rapid move to begin. )
G01 F300.00000
G01 Z-0.05000
G04 P0 ( dwell for no time -- G64 should not smooth over this point )
G01 F600.00000
G01 X-128.53634 Y124.20535
G01 X-128.58168 Y123.77919
G01 X-128.71734 Y123.36167
G01 X-128.93116 Y122.99024
G01 X-129.22321 Y122.66261
G01 X-129.59511 Y122.39240
G01 X-129.98686 Y122.21859
G01 X-130.42674 Y122.12677
G01 X-130.84485 Y122.12677
G01 X-131.27461 Y122.21587
G01 X-131.69458 Y122.40287
G01 X-132.04096 Y122.65522
G01 X-132.32813 Y122.97333
G01 X-132.55424 Y123.36167
G01 X-132.67799 Y123.74081
G01 X-135.33033 Y123.74081
G01 X-144.59209 Y114.47906
G01 X-144.59209 Y103.93318
G01 X-141.95270 Y101.28289
G01 X-141.89964 Y101.18363
G01 X-141.86728 Y101.02092
G01 X-141.86679 Y99.98582
G01 X-140.74178 Y99.98582
G01 X-140.67106 Y99.95653
G01 X-140.64178 Y99.88582
G01 X-140.64940 Y96.64755
G01 X-140.68623 Y96.60267
G01 X-140.74178 Y96.58580
G01 X-141.86679 Y96.58580
G01 X-141.87447 Y95.47755
G01 X-141.90713 Y95.36985
G01 X-141.95270 Y95.28872
G01 X-142.12079 Y95.10976
G01 X-142.12079 Y93.63582
G01 X-140.99578 Y93.63582
G01 X-140.92506 Y93.60653
G01 X-140.89771 Y93.55533
G01 X-140.90340 Y90.29755
G01 X-140.94023 Y90.25267
G01 X-140.99578 Y90.23580
G01 X-144.23405 Y90.24342
G01 X-144.27893 Y90.28025
G01 X-144.29580 Y90.33580
G01 X-144.29387 Y93.55533
G01 X-144.26651 Y93.60653
G01 X-144.19580 Y93.63582
G01 X-143.07078 Y93.63582
G01 X-143.06311 Y95.38946
G01 X-143.03044 Y95.49716
G01 X-142.98488 Y95.57828
G01 X-142.81678 Y95.75728
G01 X-142.81678 Y96.58580
G01 X-143.94180 Y96.58580
G01 X-144.01251 Y96.61509
G01 X-144.03987 Y96.66629
G01 X-144.03987 Y99.90533
G01 X-144.01251 Y99.95653
G01 X-143.94180 Y99.98582
G01 X-142.81678 Y99.98582
G01 X-142.81678 Y100.81434
G01 X-145.40296 Y103.40054
G01 X-145.50174 Y103.54576
G01 X-145.53440 Y103.65345
G01 X-145.54210 Y114.67581
G01 X-145.50174 Y114.86646
G01 X-145.40296 Y115.01170
G01 X-135.86297 Y124.55168
G01 X-135.78255 Y124.61579
G01 X-135.62927 Y124.67929
G01 X-135.52708 Y124.69080
G01 X-132.67799 Y124.69082
G01 X-132.54949 Y125.07929
G01 X-132.32813 Y125.45828
G01 X-132.04096 Y125.77642
G01 X-131.69458 Y126.02877
G01 X-131.27461 Y126.21574
G01 X-130.84485 Y126.30484
G01 X-130.42674 Y126.30484
G01 X-129.98686 Y126.21302
G01 X-129.59511 Y126.03921
G01 X-129.23062 Y125.77642
G01 X-128.94343 Y125.45828
G01 X-128.71358 Y125.06019
G01 X-128.58168 Y124.65242
G01 X-128.53634 Y124.20535
G04 P0 ( dwell for no time -- G64 should not smooth over this point )
G00 Z5.00000 ( retract )

G00 X-126.09327 Y97.18529 ( rapid move to begin. )
G01 F300.00000
G01 Z-0.05000
G04 P0 ( dwell for no time -- G64 should not smooth over this point )
G01 F600.00000
G01 X-126.09327 Y97.18529
G01 X-126.13891 Y96.95999
G01 X-126.24087 Y96.73104
G01 X-126.37772 Y96.54635
G01 X-126.54122 Y96.39990
G01 X-126.73106 Y96.28966
G01 X-126.94897 Y96.21656
G01 X-127.17734 Y96.19035
G01 X-128.19824 Y96.19035
G01 X-128.41648 Y96.21384
G01 X-128.64452 Y96.28966
G01 X-128.83436 Y96.39990
G01 X-129.01183 Y96.56190
G01 X-129.14518 Y96.74915
G01 X-129.23667 Y96.95999
G01 X-129.28175 Y97.17483
G01 X-129.28175 Y97.40480
G01 X-129.23019 Y97.63949
G01 X-129.13471 Y97.84859
G01 X-129.01183 Y98.01772
G01 X-128.84249 Y98.17315
G01 X-128.64452 Y98.28996
G01 X-128.42661 Y98.36306
G01 X-128.19824 Y98.38925
G01 X-127.17734 Y98.38925
G01 X-126.94897 Y98.36306
G01 X-126.75014 Y98.29847
G01 X-126.54122 Y98.17973
G01 X-126.37772 Y98.03324
G01 X-126.24087 Y97.84859
G01 X-126.14539 Y97.63949
G01 X-126.09380 Y97.40480
G01 X-126.09327 Y97.18529
G04 P0 ( dwell for no time -- G64 should not smooth over this point )
G00 Z5.00000 ( retract )

G00 X-126.09327 Y94.64529 ( rapid move to begin. )
G01 F300.00000
G01 Z-0.05000
G04 P0 ( dwell for no time -- G64 should not smooth over this point )
G01 F600.00000
G01 X-126.09327 Y94.64529
G01 X-126.13891 Y94.41999
G01 X-126.24087 Y94.19104
G01 X-126.37772 Y94.00635
G01 X-126.54122 Y93.85990
G01 X-126.73106 Y93.74966
G01 X-126.94897 Y93.67656
G01 X-127.17734 Y93.65035
G01 X-128.19824 Y93.65035
G01 X-128.41648 Y93.67384
G01 X-128.64452 Y93.74966
G01 X-128.83436 Y93.85990
G01 X-129.01183 Y94.02190
G01 X-129.14518 Y94.20915
G01 X-129.23667 Y94.41999
G01 X-129.28175 Y94.63483
G01 X-129.28175 Y94.86480
G01 X-129.23019 Y95.09949
G01 X-129.13471 Y95.30859
G01 X-129.01183 Y95.47772
G01 X-128.84249 Y95.63315
G01 X-128.64452 Y95.74996
G01 X-128.42661 Y95.82306
G01 X-128.19824 Y95.84925
G01 X-127.17734 Y95.84925
G01 X-126.94897 Y95.82306
G01 X-126.73106 Y95.74996
G01 X-126.53309 Y95.63315
G01 X-126.37033 Y95.48585
G01 X-126.24087 Y95.30859
G01 X-126.14539 Y95.09949
G01 X-126.09380 Y94.86480
G01 X-126.09327 Y94.64529
G04 P0 ( dwell for no time -- G64 should not smooth over this point )
G00 Z5.00000 ( retract )

G00 X-126.09327 Y92.10529 ( rapid move to begin. )
G01 F300.00000
G01 Z-0.05000
G04 P0 ( dwell for no time -- G64 should not smooth over this point )
G01 F600.00000
G01 X-126.09327 Y92.10529
G01 X-126.13891 Y91.87999
G01 X-126.23040 Y91.66915
G01 X-126.37772 Y91.46635
G01 X-126.54122 Y91.31990
G01 X-126.75014 Y91.20115
G01 X-126.96942 Y91.13222
G01 X-127.18778 Y91.10981
G01 X-128.18778 Y91.10981
G01 X-128.42661 Y91.13656
G01 X-128.64452 Y91.20966
G01 X-128.83436 Y91.31990
G01 X-129.01183 Y91.48190
G01 X-129.13471 Y91.65104
G01 X-129.17441 Y91.73481
G01 X-133.77517 Y91.73481
G01 X-133.75678 Y91.55480
G01 X-133.79010 Y91.23250
G01 X-133.89137 Y90.91380
G01 X-134.05665 Y90.62312
G01 X-134.28619 Y90.36577
G01 X-134.56612 Y90.16443
G01 X-134.86236 Y90.03311
G01 X-135.17920 Y89.96521
G01 X-135.53437 Y89.96521
G01 X-135.85121 Y90.03311
G01 X-136.09762 Y90.14223
G01 X-144.86239 Y81.37745
G01 X-144.86239 Y52.42246
G01 X-143.91091 Y51.47098
G01 X-143.81213 Y51.32574
G01 X-143.77179 Y51.13512
G01 X-143.77179 Y50.10982
G01 X-143.45610 Y50.10982
G01 X-143.21726 Y50.08307
G01 X-142.99936 Y50.00995
G01 X-142.80139 Y49.89313
G01 X-142.63205 Y49.73771
G01 X-142.49870 Y49.55049
G01 X-142.40720 Y49.33962
G01 X-142.36212 Y49.12478
G01 X-142.36156 Y48.90528
G01 X-142.41368 Y48.66011
G01 X-142.49870 Y48.46913
G01 X-142.63205 Y48.28191
G01 X-142.81830 Y48.11419
G01 X-143.01846 Y48.00116
G01 X-143.21726 Y47.93654
G01 X-143.45610 Y47.90980
G01 X-145.03748 Y47.90980
G01 X-145.26618 Y47.93385
G01 X-145.47512 Y48.00116
G01 X-145.69219 Y48.12649
G01 X-145.86153 Y48.28191
G01 X-145.99488 Y48.46913
G01 X-146.08637 Y48.68000
G01 X-146.13145 Y48.89484
G01 X-146.13145 Y49.12478
G01 X-146.08637 Y49.33962
G01 X-145.99488 Y49.55049
G01 X-145.86153 Y49.73771
G01 X-145.68406 Y49.89974
G01 X-145.49422 Y50.00995
G01 X-145.25584 Y50.08742
G01 X-145.03748 Y50.10982
G01 X-144.72178 Y50.10982
G01 X-144.72178 Y50.93837
G01 X-145.67984 Y51.89712
G01 X-145.77954 Y52.05317
G01 X-145.81238 Y52.22572
G01 X-145.81238 Y81.57420
G01 X-145.77204 Y81.76485
G01 X-145.67326 Y81.91009
G01 X-136.76792 Y90.81543
G01 X-136.82220 Y90.91380
G01 X-136.92347 Y91.23250
G01 X-136.95680 Y91.55480
G01 X-136.91910 Y91.89757
G01 X-136.81847 Y92.20560
G01 X-136.64463 Y92.50341
G01 X-136.41926 Y92.75043
G01 X-136.15680 Y92.94044
G01 X-135.84110 Y93.07920
G01 X-135.53437 Y93.14440
G01 X-135.20001 Y93.14659
G01 X-134.86236 Y93.07651
G01 X-134.56612 Y92.94519
G01 X-134.29432 Y92.75043
G01 X-134.23229 Y92.68482
G01 X-129.17441 Y92.68482
G01 X-129.13471 Y92.76859
G01 X-129.01183 Y92.93772
G01 X-128.83436 Y93.09973
G01 X-128.64452 Y93.20996
G01 X-128.42661 Y93.28306
G01 X-128.18778 Y93.30981
G01 X-127.17734 Y93.30925
G01 X-126.94897 Y93.28306
G01 X-126.75014 Y93.21847
G01 X-126.54122 Y93.09973
G01 X-126.37772 Y92.95324
G01 X-126.24087 Y92.76859
G01 X-126.14539 Y92.55949
G01 X-126.09380 Y92.32480
G01 X-126.09327 Y92.10529
G04 P0 ( dwell for no time -- G64 should not smooth over this point )
G00 Z5.00000 ( retract )

G00 X-106.85978 Y71.53980 ( rapid move to begin. )
G01 F300.00000
G01 Z-0.05000
G04 P0 ( dwell for no time -- G64 should not smooth over this point )
G01 F600.00000
G01 X-106.85978 Y71.53980
G01 X-106.88906 Y71.46909
G01 X-106.95978 Y71.43980
G01 X-110.15980 Y71.43980
G01 X-110.23051 Y71.46909
G01 X-110.25980 Y71.53980
G01 X-110.25787 Y74.75933
G01 X-110.23051 Y74.81053
G01 X-110.15980 Y74.83982
G01 X-109.03478 Y74.83982
G01 X-109.03481 Y75.66837
G01 X-125.45159 Y92.09602
G01 X-125.50465 Y92.19528
G01 X-125.53749 Y92.36780
G01 X-125.53749 Y99.35481
G01 X-126.20117 Y99.35481
G01 X-126.24087 Y99.27104
G01 X-126.37033 Y99.09377
G01 X-126.55001 Y98.93418
G01 X-126.75014 Y98.82115
G01 X-126.94897 Y98.75656
G01 X-127.18778 Y98.72981
G01 X-128.18778 Y98.72981
G01 X-128.42661 Y98.75656
G01 X-128.64452 Y98.82966
G01 X-128.83436 Y98.93990
G01 X-129.00525 Y99.09377
G01 X-129.13471 Y99.27104
G01 X-129.17441 Y99.35481
G01 X-133.61604 Y99.35481
G01 X-134.32665 Y98.64422
G01 X-134.27237 Y98.54582
G01 X-134.17110 Y98.22712
G01 X-134.13778 Y97.90480
G01 X-134.17547 Y97.56205
G01 X-134.27611 Y97.25402
G01 X-134.43765 Y96.97312
G01 X-134.65977 Y96.72319
G01 X-134.92901 Y96.52487
G01 X-135.24336 Y96.38311
G01 X-135.56020 Y96.31521
G01 X-135.91537 Y96.31521
G01 X-136.23221 Y96.38311
G01 X-136.53780 Y96.51918
G01 X-136.80838 Y96.71577
G01 X-137.02563 Y96.95621
G01 X-137.20320 Y97.26380
G01 X-137.30447 Y97.58250
G01 X-137.33780 Y97.90480
G01 X-137.30447 Y98.22712
G01 X-137.20320 Y98.54582
G01 X-137.02563 Y98.85341
G01 X-136.81580 Y99.08643
G01 X-136.54656 Y99.28475
G01 X-136.22210 Y99.42920
G01 X-135.91537 Y99.49440
G01 X-135.58101 Y99.49659
G01 X-135.24336 Y99.42651
G01 X-134.99696 Y99.31739
G01 X-134.48454 Y99.82981
G01 X-142.67766 Y108.02294
G01 X-142.74177 Y108.10333
G01 X-142.80527 Y108.25662
G01 X-142.81678 Y108.35880
G01 X-142.81678 Y111.89776
G01 X-143.18246 Y112.04881
G01 X-143.48670 Y112.26987
G01 X-143.72282 Y112.53535
G01 X-143.89006 Y112.82504
G01 X-144.00629 Y113.18269
G01 X-144.04124 Y113.51536
G01 X-144.00629 Y113.86893
G01 X-143.89857 Y114.20748
G01 X-143.72282 Y114.51627
G01 X-143.47931 Y114.78917
G01 X-143.18246 Y115.00281
G01 X-142.86712 Y115.14261
G01 X-142.52984 Y115.21487
G01 X-142.17454 Y115.21706
G01 X-141.81645 Y115.14261
G01 X-141.48300 Y114.99234
G01 X-141.20426 Y114.78917
G01 X-140.97304 Y114.53319
G01 X-140.79352 Y114.22658
G01 X-140.67894 Y113.87926
G01 X-140.64234 Y113.53626
G01 X-140.67894 Y113.17236
G01 X-140.78501 Y112.84414
G01 X-140.96075 Y112.53535
G01 X-141.20426 Y112.26245
G01 X-141.48300 Y112.05928
G01 X-141.86677 Y111.89776
G01 X-141.86679 Y108.55555
G01 X-133.61606 Y100.30482
G01 X-129.17439 Y100.30482
G01 X-129.13471 Y100.38859
G01 X-129.00525 Y100.56585
G01 X-128.83436 Y100.71973
G01 X-128.64452 Y100.82996
G01 X-128.42661 Y100.90306
G01 X-128.18778 Y100.92981
G01 X-127.18778 Y100.92981
G01 X-126.94897 Y100.90306
G01 X-126.75014 Y100.83847
G01 X-126.55001 Y100.72544
G01 X-126.37033 Y100.56585
G01 X-126.23515 Y100.37980
G01 X-126.20117 Y100.30482
G01 X-124.97953 Y100.29712
G01 X-124.80701 Y100.22981
G01 X-124.72002 Y100.15841
G01 X-124.62035 Y100.00235
G01 X-124.58748 Y99.82981
G01 X-124.58748 Y92.56455
G01 X-108.22391 Y76.20098
G01 X-108.12513 Y76.05577
G01 X-108.09247 Y75.94807
G01 X-108.08479 Y74.83982
G01 X-106.95978 Y74.83982
G01 X-106.88906 Y74.81053
G01 X-106.85978 Y74.73982
G01 X-106.85978 Y71.53980
G04 P0 ( dwell for no time -- G64 should not smooth over this point )
G00 Z5.00000 ( retract )

G00 X-89.42634 Y60.05537 ( rapid move to begin. )
G01 F300.00000
G01 Z-0.05000
G04 P0 ( dwell for no time -- G64 should not smooth over this point )
G01 F600.00000
G01 X-89.42634 Y60.05537
G01 X-89.45252 Y59.82700
G01 X-89.51714 Y59.62816
G01 X-89.63017 Y59.42801
G01 X-89.78234 Y59.25575
G01 X-89.98511 Y59.10843
G01 X-90.19598 Y59.01694
G01 X-90.42125 Y58.97130
G01 X-90.64076 Y58.97183
G01 X-90.85559 Y59.01694
G01 X-91.06646 Y59.10843
G01 X-91.26923 Y59.25575
G01 X-91.41571 Y59.41925
G01 X-91.53443 Y59.62816
G01 X-91.60174 Y59.83711
G01 X-91.62524 Y60.05537
G01 X-91.60174 Y60.29451
G01 X-91.55915 Y60.42740
G01 X-94.65254 Y63.52082
G01 X-96.35741 Y63.52082
G01 X-96.50610 Y63.25295
G01 X-96.68251 Y63.06029
G01 X-96.89510 Y62.90852
G01 X-97.13463 Y62.80428
G01 X-97.38012 Y62.75267
G01 X-97.64146 Y62.75267
G01 X-97.88695 Y62.80428
G01 X-98.13579 Y62.91327
G01 X-98.35461 Y63.07428
G01 X-98.52777 Y63.26986
G01 X-98.65647 Y63.49717
G01 X-98.73348 Y63.73593
G01 X-98.76025 Y64.00626
G01 X-98.73348 Y64.25569
G01 X-98.64796 Y64.51355
G01 X-98.52777 Y64.72175
G01 X-98.35461 Y64.91733
G01 X-98.13579 Y65.07834
G01 X-97.88695 Y65.18734
G01 X-97.65180 Y65.23732
G01 X-97.39058 Y65.23951
G01 X-97.11474 Y65.18088
G01 X-96.88578 Y65.07834
G01 X-96.68251 Y64.93133
G01 X-96.49952 Y64.73054
G01 X-96.35741 Y64.47080
G01 X-94.45579 Y64.47080
G01 X-94.26514 Y64.43047
G01 X-94.11990 Y64.33169
G01 X-90.88999 Y61.10175
G01 X-90.65110 Y61.15813
G01 X-90.40048 Y61.15813
G01 X-90.18587 Y61.11198
G01 X-89.98511 Y61.02318
G01 X-89.78234 Y60.87586
G01 X-89.63586 Y60.71236
G01 X-89.51714 Y60.50345
G01 X-89.44983 Y60.29451
G01 X-89.42634 Y60.05537
G04 P0 ( dwell for no time -- G64 should not smooth over this point )
G00 Z5.00000 ( retract )

G00 X-91.62034 Y73.12936 ( rapid move to begin. )
G01 F300.00000
G01 Z-0.05000
G04 P0 ( dwell for no time -- G64 should not smooth over this point )
G01 F600.00000
G01 X-91.62034 Y73.12936
G01 X-91.65694 Y72.78636
G01 X-91.76301 Y72.45814
G01 X-91.93875 Y72.14935
G01 X-92.17487 Y71.88387
G01 X-92.47911 Y71.66281
G01 X-92.79445 Y71.52301
G01 X-93.15254 Y71.44856
G01 X-93.50784 Y71.45075
G01 X-93.83501 Y71.52029
G01 X-94.17857 Y71.67328
G01 X-94.45731 Y71.87645
G01 X-94.68853 Y72.13243
G01 X-94.86806 Y72.43904
G01 X-94.94372 Y72.66482
G01 X-98.33003 Y72.66482
G01 X-106.51904 Y64.47581
G01 X-106.44809 Y64.25569
G01 X-106.42079 Y63.99580
G01 X-106.44809 Y63.73593
G01 X-106.52511 Y63.49717
G01 X-106.65952 Y63.26108
G01 X-106.82696 Y63.07428
G01 X-107.04578 Y62.91327
G01 X-107.19579 Y62.84589
G01 X-107.19577 Y50.98226
G01 X-106.87901 Y50.98259
G01 X-106.55147 Y50.91520
G01 X-106.22701 Y50.77075
G01 X-105.95777 Y50.57243
G01 X-105.73565 Y50.32249
G01 X-105.57411 Y50.04160
G01 X-105.47347 Y49.73357
G01 X-105.43634 Y49.38036
G01 X-105.47347 Y49.04805
G01 X-105.57411 Y48.74002
G01 X-105.73565 Y48.45912
G01 X-105.95777 Y48.20919
G01 X-106.24512 Y48.00043
G01 X-106.54136 Y47.86911
G01 X-106.87901 Y47.79903
G01 X-107.21337 Y47.80121
G01 X-107.53999 Y47.87287
G01 X-107.84456 Y48.01087
G01 X-108.10638 Y48.20177
G01 X-108.32363 Y48.44221
G01 X-108.49747 Y48.74002
G01 X-108.59810 Y49.04805
G01 X-108.63580 Y49.39080
G01 X-108.59810 Y49.73357
G01 X-108.49272 Y50.05092
G01 X-108.33592 Y50.32249
G01 X-108.14578 Y50.53692
G01 X-108.14578 Y56.40882
G01 X-120.75642 Y56.40882
G01 X-120.81886 Y56.22370
G01 X-120.97565 Y55.95212
G01 X-121.21332 Y55.68819
G01 X-121.47578 Y55.49818
G01 X-121.77158 Y55.36587
G01 X-122.11901 Y55.29203
G01 X-122.45337 Y55.29421
G01 X-122.76010 Y55.35942
G01 X-123.07580 Y55.49818
G01 X-123.35380 Y55.70219
G01 X-123.57592 Y55.95212
G01 X-123.73272 Y56.22370
G01 X-123.84247 Y56.56150
G01 X-123.87524 Y56.89426
G01 X-123.84247 Y57.20612
G01 X-123.74120 Y57.52482
G01 X-123.57592 Y57.81549
G01 X-123.35380 Y58.06543
G01 X-123.07580 Y58.26944
G01 X-122.77021 Y58.40551
G01 X-122.43257 Y58.47559
G01 X-122.09820 Y58.47340
G01 X-121.79147 Y58.40820
G01 X-121.46701 Y58.26375
G01 X-121.19777 Y58.06543
G01 X-120.98794 Y57.83241
G01 X-120.81886 Y57.54392
G01 X-120.75642 Y57.35880
G01 X-108.14578 Y57.35880
G01 X-108.14578 Y62.84589
G01 X-108.29579 Y62.91327
G01 X-108.49907 Y63.06029
G01 X-108.68205 Y63.26108
G01 X-108.81647 Y63.49717
G01 X-108.89511 Y63.74627
G01 X-108.92078 Y63.99580
G01 X-108.89511 Y64.24535
G01 X-108.81647 Y64.49445
G01 X-108.68205 Y64.73054
G01 X-108.51461 Y64.91733
G01 X-108.28647 Y65.08309
G01 X-108.05706 Y65.18462
G01 X-107.81180 Y65.23732
G01 X-107.52978 Y65.23732
G01 X-107.29463 Y65.18734
G01 X-107.19361 Y65.14474
G01 X-98.86266 Y73.47569
G01 X-98.71743 Y73.57447
G01 X-98.52677 Y73.61480
G01 X-94.94372 Y73.61480
G01 X-94.86806 Y73.84058
G01 X-94.68853 Y74.14719
G01 X-94.45731 Y74.40317
G01 X-94.17857 Y74.60634
G01 X-93.83501 Y74.75933
G01 X-93.50784 Y74.82887
G01 X-93.15254 Y74.83106
G01 X-92.79445 Y74.75661
G01 X-92.47911 Y74.61681
G01 X-92.18226 Y74.40317
G01 X-91.95104 Y74.14719
G01 X-91.76301 Y73.82148
G01 X-91.65694 Y73.49326
G01 X-91.62034 Y73.12936
G04 P0 ( dwell for no time -- G64 should not smooth over this point )
G00 Z5.00000 ( retract )

G00 X-92.19326 Y97.18529 ( rapid move to begin. )
G01 F300.00000
G01 Z-0.05000
G04 P0 ( dwell for no time -- G64 should not smooth over this point )
G01 F600.00000
G01 X-92.19326 Y97.18529
G01 X-92.24538 Y96.94013
G01 X-92.34086 Y96.73104
G01 X-92.47774 Y96.54635
G01 X-92.63309 Y96.40648
G01 X-92.83105 Y96.28966
G01 X-93.04899 Y96.21656
G01 X-93.27733 Y96.19035
G01 X-94.29823 Y96.19035
G01 X-94.51650 Y96.21384
G01 X-94.74451 Y96.28966
G01 X-94.93435 Y96.39990
G01 X-95.11185 Y96.56190
G01 X-95.24517 Y96.74915
G01 X-95.33666 Y96.95999
G01 X-95.38177 Y97.17483
G01 X-95.38177 Y97.40480
G01 X-95.33021 Y97.63949
G01 X-95.24042 Y97.83980
G01 X-95.11185 Y98.01772
G01 X-94.93435 Y98.17973
G01 X-94.73519 Y98.29471
G01 X-94.52660 Y98.36306
G01 X-94.29823 Y98.38925
G01 X-93.27733 Y98.38925
G01 X-93.04899 Y98.36306
G01 X-92.84037 Y98.29471
G01 X-92.64121 Y98.17973
G01 X-92.46374 Y98.01772
G01 X-92.33042 Y97.83048
G01 X-92.24162 Y97.62974
G01 X-92.19544 Y97.41514
G01 X-92.19326 Y97.18529
G04 P0 ( dwell for no time -- G64 should not smooth over this point )
G00 Z5.00000 ( retract )

G00 X-92.19326 Y99.72529 ( rapid move to begin. )
G01 F300.00000
G01 Z-0.05000
G04 P0 ( dwell for no time -- G64 should not smooth over this point )
G01 F600.00000
G01 X-92.19326 Y99.72529
G01 X-92.24538 Y99.48013
G01 X-92.34086 Y99.27104
G01 X-92.47774 Y99.08635
G01 X-92.63309 Y98.94648
G01 X-92.83105 Y98.82966
G01 X-93.04899 Y98.75656
G01 X-93.27733 Y98.73035
G01 X-94.29823 Y98.73035
G01 X-94.52660 Y98.75656
G01 X-94.74451 Y98.82966
G01 X-94.93435 Y98.93990
G01 X-95.11185 Y99.10190
G01 X-95.24042 Y99.27980
G01 X-95.33666 Y99.49999
G01 X-95.38177 Y99.71483
G01 X-95.38177 Y99.94480
G01 X-95.33021 Y100.17949
G01 X-95.23471 Y100.38859
G01 X-95.11185 Y100.55772
G01 X-94.94248 Y100.71315
G01 X-94.74451 Y100.82996
G01 X-94.52660 Y100.90306
G01 X-94.29823 Y100.92925
G01 X-93.27733 Y100.92925
G01 X-93.04899 Y100.90306
G01 X-92.83105 Y100.82996
G01 X-92.64121 Y100.71973
G01 X-92.46374 Y100.55772
G01 X-92.33042 Y100.37048
G01 X-92.24162 Y100.16974
G01 X-92.19544 Y99.95514
G01 X-92.19326 Y99.72529
G04 P0 ( dwell for no time -- G64 should not smooth over this point )
G00 Z5.00000 ( retract )

G00 X-92.19326 Y102.26529 ( rapid move to begin. )
G01 F300.00000
G01 Z-0.05000
G04 P0 ( dwell for no time -- G64 should not smooth over this point )
G01 F600.00000
G01 X-92.19326 Y102.26529
G01 X-92.24538 Y102.02013
G01 X-92.34086 Y101.81104
G01 X-92.47032 Y101.63377
G01 X-92.63309 Y101.48648
G01 X-92.83105 Y101.36966
G01 X-93.04899 Y101.29656
G01 X-93.27733 Y101.27035
G01 X-94.29823 Y101.27035
G01 X-94.52660 Y101.29656
G01 X-94.74451 Y101.36966
G01 X-94.94248 Y101.48648
G01 X-95.11185 Y101.64190
G01 X-95.24042 Y101.81980
G01 X-95.33666 Y102.03999
G01 X-95.38177 Y102.25483
G01 X-95.38177 Y102.48480
G01 X-95.33021 Y102.71949
G01 X-95.23471 Y102.92859
G01 X-95.11185 Y103.09772
G01 X-94.94248 Y103.25315
G01 X-94.74451 Y103.36996
G01 X-94.51650 Y103.44578
G01 X-94.29823 Y103.46925
G01 X-93.27733 Y103.46925
G01 X-93.05909 Y103.44578
G01 X-92.83105 Y103.36996
G01 X-92.64121 Y103.25973
G01 X-92.46374 Y103.09772
G01 X-92.33042 Y102.91048
G01 X-92.24162 Y102.70974
G01 X-92.19544 Y102.49514
G01 X-92.19326 Y102.26529
G04 P0 ( dwell for no time -- G64 should not smooth over this point )
G00 Z5.00000 ( retract )

G00 X-92.19326 Y104.80529 ( rapid move to begin. )
G01 F300.00000
G01 Z-0.05000
G04 P0 ( dwell for no time -- G64 should not smooth over this point )
G01 F600.00000
G01 X-92.19326 Y104.80529
G01 X-92.24538 Y104.56013
G01 X-92.34086 Y104.35104
G01 X-92.47774 Y104.16635
G01 X-92.63309 Y104.02648
G01 X-92.83105 Y103.90966
G01 X-93.05909 Y103.83384
G01 X-93.27733 Y103.81035
G01 X-94.29823 Y103.81035
G01 X-94.51650 Y103.83384
G01 X-94.74451 Y103.90966
G01 X-94.93435 Y104.01990
G01 X-95.11185 Y104.18190
G01 X-95.24042 Y104.35980
G01 X-95.33666 Y104.57999
G01 X-95.38177 Y104.79483
G01 X-95.38177 Y105.02480
G01 X-95.33021 Y105.25949
G01 X-95.23471 Y105.46859
G01 X-95.11185 Y105.63772
G01 X-94.94248 Y105.79315
G01 X-94.74451 Y105.90996
G01 X-94.52660 Y105.98306
G01 X-94.29823 Y106.00925
G01 X-93.27733 Y106.00925
G01 X-93.04899 Y105.98306
G01 X-92.83105 Y105.90996
G01 X-92.63309 Y105.79315
G01 X-92.47032 Y105.64585
G01 X-92.34086 Y105.46859
G01 X-92.24162 Y105.24974
G01 X-92.19544 Y105.03514
G01 X-92.19326 Y104.80529
G04 P0 ( dwell for no time -- G64 should not smooth over this point )
G00 Z5.00000 ( retract )

G00 X-85.45126 Y100.01127 ( rapid move to begin. )
G01 F300.00000
G01 Z-0.05000
G04 P0 ( dwell for no time -- G64 should not smooth over this point )
G01 F600.00000
G01 X-85.45126 Y100.01127
G01 X-85.45345 Y100.24114
G01 X-85.49962 Y100.45572
G01 X-85.59317 Y100.66580
G01 X-85.72175 Y100.84373
G01 X-85.89109 Y100.99915
G01 X-86.08905 Y101.11597
G01 X-86.31710 Y101.19176
G01 X-86.53533 Y101.21525
G01 X-87.55624 Y101.21525
G01 X-87.77450 Y101.19176
G01 X-88.00251 Y101.11597
G01 X-88.20048 Y100.99915
G01 X-88.36324 Y100.85186
G01 X-88.49271 Y100.67459
G01 X-88.58819 Y100.46550
G01 X-88.63977 Y100.23080
G01 X-88.63977 Y100.00083
G01 X-88.59466 Y99.78600
G01 X-88.50317 Y99.57513
G01 X-88.36324 Y99.37977
G01 X-88.20048 Y99.23248
G01 X-88.00251 Y99.11567
G01 X-87.78461 Y99.04256
G01 X-87.55624 Y99.01635
G01 X-86.53533 Y99.01635
G01 X-86.30696 Y99.04256
G01 X-86.08905 Y99.11567
G01 X-85.89109 Y99.23248
G01 X-85.72832 Y99.37977
G01 X-85.59886 Y99.55704
G01 X-85.49690 Y99.78600
G01 X-85.45126 Y100.01127
G04 P0 ( dwell for no time -- G64 should not smooth over this point )
G00 Z5.00000 ( retract )

G00 X-54.88632 Y83.03536 ( rapid move to begin. )
G01 F300.00000
G01 Z-0.05000
G04 P0 ( dwell for no time -- G64 should not smooth over this point )
G01 F600.00000
G01 X-54.88632 Y83.03536
G01 X-54.91528 Y83.32649
G01 X-54.99874 Y83.58514
G01 X-55.13791 Y83.83053
G01 X-55.32506 Y84.04165
G01 X-55.55201 Y84.20924
G01 X-55.80885 Y84.32598
G01 X-56.10512 Y84.38897
G01 X-56.38723 Y84.38676
G01 X-56.65297 Y84.32974
G01 X-56.91078 Y84.21493
G01 X-57.14652 Y84.04165
G01 X-57.32795 Y83.83932
G01 X-57.46907 Y83.59489
G01 X-57.55358 Y83.33660
G01 X-57.58525 Y83.05626
G01 X-57.55792 Y82.77546
G01 X-57.46907 Y82.49672
G01 X-57.32795 Y82.25230
G01 X-57.14652 Y82.04996
G01 X-56.91957 Y81.88237
G01 X-56.66272 Y81.76564
G01 X-56.36646 Y81.70264
G01 X-56.08434 Y81.70485
G01 X-55.81860 Y81.76188
G01 X-55.55201 Y81.88237
G01 X-55.33245 Y82.04257
G01 X-55.15020 Y82.24417
G01 X-55.00725 Y82.48738
G01 X-54.91528 Y82.76513
G01 X-54.88632 Y83.03536
G04 P0 ( dwell for no time -- G64 should not smooth over this point )
G00 Z5.00000 ( retract )

G00 X-48.78578 Y82.54580 ( rapid move to begin. )
G01 F300.00000
G01 Z-0.05000
G04 P0 ( dwell for no time -- G64 should not smooth over this point )
G01 F600.00000
G01 X-48.78578 Y82.54580
G01 X-48.78578 Y83.54582
G01 X-48.80983 Y83.77452
G01 X-48.87714 Y83.98344
G01 X-48.99586 Y84.19238
G01 X-49.15789 Y84.36985
G01 X-49.33579 Y84.49845
G01 X-49.41079 Y84.53243
G01 X-49.41128 Y85.68092
G01 X-49.44364 Y85.84363
G01 X-49.49670 Y85.94290
G01 X-56.37461 Y92.83168
G01 X-56.45500 Y92.89581
G01 X-56.60829 Y92.95929
G01 X-56.71048 Y92.97082
G01 X-61.05916 Y92.97080
G01 X-61.09886 Y93.05459
G01 X-61.22174 Y93.22373
G01 X-61.39921 Y93.38573
G01 X-61.58905 Y93.49597
G01 X-61.80699 Y93.56907
G01 X-62.04580 Y93.59581
G01 X-63.04579 Y93.59581
G01 X-63.28460 Y93.56907
G01 X-63.50251 Y93.49597
G01 X-63.68356 Y93.39142
G01 X-63.86324 Y93.23186
G01 X-63.99842 Y93.04580
G01 X-64.03241 Y92.97080
G01 X-65.25404 Y92.96312
G01 X-65.36174 Y92.93046
G01 X-65.44287 Y92.88492
G01 X-65.65384 Y92.68482
G01 X-92.30116 Y92.68482
G01 X-92.34086 Y92.76859
G01 X-92.46374 Y92.93772
G01 X-92.64121 Y93.09973
G01 X-92.83105 Y93.20996
G01 X-93.04899 Y93.28306
G01 X-93.28780 Y93.30981
G01 X-94.28779 Y93.30981
G01 X-94.51650 Y93.28578
G01 X-94.72544 Y93.21847
G01 X-94.94248 Y93.09315
G01 X-95.11185 Y92.93772
G01 X-95.24042 Y92.75980
G01 X-95.33021 Y92.55949
G01 X-95.38012 Y92.33514
G01 X-95.38177 Y92.09483
G01 X-95.33666 Y91.87999
G01 X-95.24042 Y91.65980
G01 X-95.11185 Y91.48190
G01 X-94.93435 Y91.31990
G01 X-94.73519 Y91.20491
G01 X-94.52660 Y91.13656
G01 X-94.28779 Y91.10981
G01 X-93.28780 Y91.10981
G01 X-93.04899 Y91.13656
G01 X-92.84037 Y91.20491
G01 X-92.64121 Y91.31990
G01 X-92.46374 Y91.48190
G01 X-92.34086 Y91.65104
G01 X-92.30116 Y91.73481
G01 X-65.45709 Y91.73481
G01 X-65.35491 Y91.74631
G01 X-65.20162 Y91.80981
G01 X-64.97434 Y92.02081
G01 X-64.03241 Y92.02081
G01 X-63.99842 Y91.94580
G01 X-63.86324 Y91.75977
G01 X-63.70048 Y91.61248
G01 X-63.50251 Y91.49567
G01 X-63.28460 Y91.42256
G01 X-63.04579 Y91.39582
G01 X-62.04580 Y91.39582
G01 X-61.80699 Y91.42256
G01 X-61.60815 Y91.48716
G01 X-61.40800 Y91.60019
G01 X-61.22174 Y91.76790
G01 X-61.09886 Y91.93704
G01 X-61.05916 Y92.02081
G01 X-56.90725 Y92.02081
G01 X-50.36078 Y85.47437
G01 X-50.36078 Y84.53243
G01 X-50.43579 Y84.49845
G01 X-50.61369 Y84.36985
G01 X-50.76911 Y84.20051
G01 X-50.89443 Y83.98344
G01 X-50.96339 Y83.76418
G01 X-50.98580 Y83.54582
G01 X-50.98524 Y82.53536
G01 X-50.95905 Y82.30699
G01 X-50.89443 Y82.10818
G01 X-50.76911 Y81.89111
G01 X-50.62184 Y81.72835
G01 X-50.44457 Y81.59889
G01 X-50.21559 Y81.49693
G01 X-50.00076 Y81.45184
G01 X-49.78125 Y81.45129
G01 X-49.53609 Y81.50341
G01 X-49.34511 Y81.58842
G01 X-49.15789 Y81.72177
G01 X-48.99586 Y81.89924
G01 X-48.88565 Y82.08908
G01 X-48.81252 Y82.30699
G01 X-48.78578 Y82.54580
G04 P0 ( dwell for no time -- G64 should not smooth over this point )
G00 Z5.00000 ( retract )

G00 X-46.24578 Y82.54580 ( rapid move to begin. )
G01 F300.00000
G01 Z-0.05000
G04 P0 ( dwell for no time -- G64 should not smooth over this point )
G01 F600.00000
G01 X-46.24578 Y82.54580
G01 X-46.24578 Y83.54582
G01 X-46.26818 Y83.76418
G01 X-46.34565 Y84.00254
G01 X-46.45586 Y84.19238
G01 X-46.60234 Y84.35588
G01 X-46.80511 Y84.50320
G01 X-47.01598 Y84.59469
G01 X-47.24125 Y84.64033
G01 X-47.46076 Y84.63977
G01 X-47.69548 Y84.58821
G01 X-47.89579 Y84.49845
G01 X-48.08923 Y84.35588
G01 X-48.23571 Y84.19238
G01 X-48.35443 Y83.98344
G01 X-48.42339 Y83.76418
G01 X-48.44580 Y83.54582
G01 X-48.44580 Y82.54580
G01 X-48.42339 Y82.32743
G01 X-48.34592 Y82.08908
G01 X-48.23571 Y81.89924
G01 X-48.08923 Y81.73574
G01 X-47.88646 Y81.58842
G01 X-47.67559 Y81.49693
G01 X-47.46076 Y81.45184
G01 X-47.24125 Y81.45129
G01 X-46.99609 Y81.50341
G01 X-46.80511 Y81.58842
G01 X-46.61789 Y81.72177
G01 X-46.45586 Y81.89924
G01 X-46.34565 Y82.08908
G01 X-46.27252 Y82.30699
G01 X-46.24578 Y82.54580
G04 P0 ( dwell for no time -- G64 should not smooth over this point )
G00 Z5.00000 ( retract )

G00 X-43.70578 Y82.54580 ( rapid move to begin. )
G01 F300.00000
G01 Z-0.05000
G04 P0 ( dwell for no time -- G64 should not smooth over this point )
G01 F600.00000
G01 X-43.70578 Y82.54580
G01 X-43.70578 Y83.54582
G01 X-43.72818 Y83.76418
G01 X-43.80565 Y84.00254
G01 X-43.91586 Y84.19238
G01 X-44.06234 Y84.35588
G01 X-44.26511 Y84.50320
G01 X-44.47598 Y84.59469
G01 X-44.70125 Y84.64033
G01 X-44.92076 Y84.63977
G01 X-45.15548 Y84.58821
G01 X-45.35579 Y84.49845
G01 X-45.54923 Y84.35588
G01 X-45.69571 Y84.19238
G01 X-45.81443 Y83.98344
G01 X-45.88339 Y83.76418
G01 X-45.90580 Y83.54582
G01 X-45.90580 Y82.54580
G01 X-45.88339 Y82.32743
G01 X-45.80592 Y82.08908
G01 X-45.69571 Y81.89924
G01 X-45.54923 Y81.73574
G01 X-45.34646 Y81.58842
G01 X-45.13559 Y81.49693
G01 X-44.92076 Y81.45184
G01 X-44.70125 Y81.45129
G01 X-44.45609 Y81.50341
G01 X-44.26511 Y81.58842
G01 X-44.07789 Y81.72177
G01 X-43.91586 Y81.89924
G01 X-43.80565 Y82.08908
G01 X-43.73252 Y82.30699
G01 X-43.70578 Y82.54580
G04 P0 ( dwell for no time -- G64 should not smooth over this point )
G00 Z5.00000 ( retract )

G00 X-41.16578 Y82.54580 ( rapid move to begin. )
G01 F300.00000
G01 Z-0.05000
G04 P0 ( dwell for no time -- G64 should not smooth over this point )
G01 F600.00000
G01 X-41.16578 Y82.54580
G01 X-41.16578 Y83.54582
G01 X-41.18818 Y83.76418
G01 X-41.25714 Y83.98344
G01 X-41.38246 Y84.20051
G01 X-41.53789 Y84.36985
G01 X-41.71579 Y84.49845
G01 X-41.79079 Y84.53243
G01 X-41.79128 Y85.68092
G01 X-41.82364 Y85.84363
G01 X-41.87670 Y85.94290
G01 X-51.29461 Y95.37168
G01 X-51.37500 Y95.43581
G01 X-51.52829 Y95.49929
G01 X-51.63048 Y95.51082
G01 X-61.05916 Y95.51080
G01 X-61.09886 Y95.59459
G01 X-61.22174 Y95.76373
G01 X-61.39921 Y95.92573
G01 X-61.58905 Y96.03597
G01 X-61.80699 Y96.10907
G01 X-62.04580 Y96.13581
G01 X-63.04579 Y96.13581
G01 X-63.28460 Y96.10907
G01 X-63.50251 Y96.03597
G01 X-63.68356 Y95.93142
G01 X-63.86324 Y95.77186
G01 X-63.99842 Y95.58580
G01 X-64.03241 Y95.51080
G01 X-65.25404 Y95.50312
G01 X-65.36174 Y95.47046
G01 X-65.44287 Y95.42492
G01 X-65.65384 Y95.22482
G01 X-92.30116 Y95.22482
G01 X-92.34086 Y95.30859
G01 X-92.47032 Y95.48585
G01 X-92.63309 Y95.63315
G01 X-92.84037 Y95.75471
G01 X-93.04899 Y95.82306
G01 X-93.28780 Y95.84981
G01 X-94.28779 Y95.84981
G01 X-94.50616 Y95.82741
G01 X-94.72544 Y95.75847
G01 X-94.94248 Y95.63315
G01 X-95.10524 Y95.48585
G01 X-95.23471 Y95.30859
G01 X-95.33666 Y95.07961
G01 X-95.38231 Y94.85433
G01 X-95.38177 Y94.63483
G01 X-95.33666 Y94.41999
G01 X-95.24042 Y94.19980
G01 X-95.11185 Y94.02190
G01 X-94.93435 Y93.85990
G01 X-94.74451 Y93.74966
G01 X-94.51650 Y93.67384
G01 X-94.28779 Y93.64981
G01 X-93.28780 Y93.64981
G01 X-93.04899 Y93.67656
G01 X-92.83105 Y93.74966
G01 X-92.64121 Y93.85990
G01 X-92.46374 Y94.02190
G01 X-92.34086 Y94.19104
G01 X-92.30116 Y94.27481
G01 X-65.45709 Y94.27481
G01 X-65.35491 Y94.28631
G01 X-65.20162 Y94.34981
G01 X-64.97434 Y94.56081
G01 X-64.03241 Y94.56081
G01 X-63.99271 Y94.47704
G01 X-63.86324 Y94.29977
G01 X-63.70048 Y94.15248
G01 X-63.49319 Y94.03092
G01 X-63.28460 Y93.96256
G01 X-63.04579 Y93.93582
G01 X-62.04580 Y93.93582
G01 X-61.80699 Y93.96256
G01 X-61.59837 Y94.03092
G01 X-61.40800 Y94.14019
G01 X-61.22174 Y94.30790
G01 X-61.09886 Y94.47704
G01 X-61.05916 Y94.56081
G01 X-51.82722 Y94.56081
G01 X-42.74078 Y85.47437
G01 X-42.74078 Y84.53243
G01 X-42.81579 Y84.49845
G01 X-42.99369 Y84.36985
G01 X-43.15571 Y84.19238
G01 X-43.27443 Y83.98344
G01 X-43.34339 Y83.76418
G01 X-43.36580 Y83.54582
G01 X-43.36524 Y82.53536
G01 X-43.34174 Y82.31710
G01 X-43.27443 Y82.10818
G01 X-43.14911 Y81.89111
G01 X-43.00923 Y81.73574
G01 X-42.82457 Y81.59889
G01 X-42.59559 Y81.49693
G01 X-42.38076 Y81.45184
G01 X-42.16125 Y81.45129
G01 X-41.91609 Y81.50341
G01 X-41.72511 Y81.58842
G01 X-41.53789 Y81.72177
G01 X-41.37017 Y81.90803
G01 X-41.25714 Y82.10818
G01 X-41.19252 Y82.30699
G01 X-41.16578 Y82.54580
G04 P0 ( dwell for no time -- G64 should not smooth over this point )
G00 Z5.00000 ( retract )

G00 X-17.80634 Y58.90536 ( rapid move to begin. )
G01 F300.00000
G01 Z-0.05000
G04 P0 ( dwell for no time -- G64 should not smooth over this point )
G01 F600.00000
G01 X-17.80634 Y58.90536
G01 X-17.84075 Y58.58316
G01 X-17.94886 Y58.25570
G01 X-18.11794 Y57.96721
G01 X-18.33519 Y57.72677
G01 X-18.59701 Y57.53587
G01 X-18.91136 Y57.39411
G01 X-19.22820 Y57.32621
G01 X-19.56257 Y57.32403
G01 X-19.90021 Y57.39411
G01 X-20.19645 Y57.52543
G01 X-20.47638 Y57.72677
G01 X-20.69363 Y57.96721
G01 X-20.87120 Y58.27480
G01 X-20.97082 Y58.58316
G01 X-21.00524 Y58.92626
G01 X-20.97082 Y59.24846
G01 X-20.86272 Y59.57592
G01 X-20.69363 Y59.86441
G01 X-20.47638 Y60.10485
G01 X-20.21456 Y60.29575
G01 X-19.90021 Y60.43751
G01 X-19.58337 Y60.50540
G01 X-19.24901 Y60.50759
G01 X-18.91136 Y60.43751
G01 X-18.61512 Y60.30619
G01 X-18.33519 Y60.10485
G01 X-18.11794 Y59.86441
G01 X-17.94037 Y59.55682
G01 X-17.84075 Y59.24846
G01 X-17.80634 Y58.90536
G04 P0 ( dwell for no time -- G64 should not smooth over this point )
G00 Z5.00000 ( retract )

G00 X-26.69578 Y42.15180 ( rapid move to begin. )
G01 F300.00000
G01 Z-0.05000
G04 P0 ( dwell for no time -- G64 should not smooth over this point )
G01 F600.00000
G01 X-26.69578 Y42.15180
G01 X-26.72910 Y41.82950
G01 X-26.83037 Y41.51080
G01 X-27.00137 Y41.21136
G01 X-27.21777 Y40.97019
G01 X-27.49578 Y40.76618
G01 X-27.79158 Y40.63387
G01 X-28.13901 Y40.56003
G01 X-28.47337 Y40.56221
G01 X-28.79999 Y40.63387
G01 X-29.08645 Y40.76143
G01 X-29.37380 Y40.97019
G01 X-29.59021 Y41.21136
G01 X-29.71294 Y41.42282
G01 X-39.84241 Y41.42279
G01 X-39.98452 Y41.16308
G01 X-40.16751 Y40.96229
G01 X-40.38010 Y40.81052
G01 X-40.59974 Y40.71273
G01 X-40.87558 Y40.65411
G01 X-41.13680 Y40.65630
G01 X-41.37195 Y40.70628
G01 X-41.62956 Y40.82099
G01 X-41.83961 Y40.97628
G01 X-42.00047 Y41.15495
G01 X-42.14916 Y41.42282
G01 X-43.27548 Y41.42279
G01 X-43.28317 Y41.17984
G01 X-43.30834 Y41.09028
G01 X-43.36138 Y40.99104
G01 X-43.47870 Y40.87372
G01 X-43.57796 Y40.82066
G01 X-43.74068 Y40.78830
G01 X-44.77578 Y40.78782
G01 X-44.77771 Y40.44329
G01 X-44.80509 Y40.39211
G01 X-44.85627 Y40.36473
G01 X-47.29530 Y40.36473
G01 X-47.35893 Y40.40725
G01 X-47.37580 Y40.46280
G01 X-47.37580 Y42.06282
G01 X-47.35893 Y42.11837
G01 X-47.31405 Y42.15520
G01 X-44.85627 Y42.16089
G01 X-44.80509 Y42.13351
G01 X-44.77771 Y42.08233
G01 X-44.77578 Y41.73783
G01 X-44.22549 Y41.73783
G01 X-44.22549 Y45.52169
G01 X-44.43158 Y45.48011
G01 X-44.67199 Y45.48011
G01 X-44.92795 Y45.53228
G01 X-45.16747 Y45.63652
G01 X-45.39561 Y45.80228
G01 X-45.56877 Y45.99786
G01 X-45.69371 Y46.21539
G01 X-45.77176 Y46.45382
G01 X-45.80125 Y46.73426
G01 X-45.77448 Y46.98369
G01 X-45.70354 Y47.20378
G01 X-48.63543 Y50.13570
G01 X-62.75776 Y50.13570
G01 X-75.53121 Y37.36225
G01 X-75.67645 Y37.26346
G01 X-75.86708 Y37.22310
G01 X-91.46565 Y37.23080
G01 X-91.57332 Y37.26346
G01 X-91.71856 Y37.36225
G01 X-92.98696 Y38.63065
G01 X-93.09323 Y38.79397
G01 X-93.12610 Y38.96651
G01 X-93.11840 Y41.23727
G01 X-93.08574 Y41.34497
G01 X-92.98696 Y41.49018
G01 X-88.87538 Y45.60178
G01 X-88.87538 Y53.25965
G01 X-89.85224 Y54.23651
G01 X-96.87176 Y54.23651
G01 X-105.79879 Y45.30945
G01 X-105.79879 Y31.61773
G01 X-105.64002 Y31.54463
G01 X-105.44551 Y31.40333
G01 X-105.26252 Y31.20254
G01 X-105.13662 Y30.98555
G01 X-105.05381 Y30.73780
G01 X-105.02379 Y30.46780
G01 X-105.05109 Y30.20793
G01 X-105.12811 Y29.96917
G01 X-105.26252 Y29.73308
G01 X-105.44551 Y29.53229
G01 X-105.64002 Y29.39099
G01 X-105.79879 Y29.31789
G01 X-105.79879 Y21.80917
G01 X-105.41104 Y21.42141
G01 X-100.68024 Y21.42141
G01 X-99.77186 Y22.32979
G01 X-99.91905 Y22.49408
G01 X-100.04496 Y22.71107
G01 X-100.13211 Y22.97927
G01 X-100.15778 Y23.22880
G01 X-100.13211 Y23.47835
G01 X-100.04496 Y23.74655
G01 X-99.91905 Y23.96354
G01 X-99.73607 Y24.16433
G01 X-99.52347 Y24.31609
G01 X-99.30384 Y24.41388
G01 X-99.04880 Y24.47032
G01 X-98.78758 Y24.47251
G01 X-98.52152 Y24.41762
G01 X-98.27402 Y24.30563
G01 X-98.06396 Y24.15033
G01 X-97.89081 Y23.95475
G01 X-97.76211 Y23.72745
G01 X-97.68781 Y23.49880
G01 X-97.65832 Y23.23926
G01 X-97.68509 Y22.96893
G01 X-97.77062 Y22.71107
G01 X-97.89652 Y22.49408
G01 X-98.06396 Y22.30728
G01 X-98.29210 Y22.14152
G01 X-98.52152 Y22.04000
G01 X-98.77133 Y21.98681
G01 X-100.14760 Y20.61054
G01 X-100.31095 Y20.50427
G01 X-100.48349 Y20.47140
G01 X-105.60779 Y20.47140
G01 X-105.70997 Y20.48293
G01 X-105.79844 Y20.51176
G01 X-105.93639 Y20.60394
G01 X-106.60966 Y21.27653
G01 X-106.70844 Y21.42176
G01 X-106.74111 Y21.52946
G01 X-106.74878 Y29.31789
G01 X-106.90756 Y29.39099
G01 X-107.10207 Y29.53229
G01 X-107.28505 Y29.73308
G01 X-107.41947 Y29.96917
G01 X-107.49811 Y30.21827
G01 X-107.52378 Y30.46780
G01 X-107.49376 Y30.73780
G01 X-107.41096 Y30.98555
G01 X-107.28505 Y31.20254
G01 X-107.10207 Y31.40333
G01 X-106.90756 Y31.54463
G01 X-106.74878 Y31.61773
G01 X-106.74878 Y45.03122
G01 X-114.61508 Y45.03122
G01 X-114.78763 Y45.06406
G01 X-114.94368 Y45.16375
G01 X-135.74588 Y65.97613
G01 X-135.79894 Y66.07537
G01 X-135.83178 Y66.24791
G01 X-135.83178 Y74.78843
G01 X-136.15680 Y74.92918
G01 X-136.43480 Y75.13319
G01 X-136.65692 Y75.38312
G01 X-136.81372 Y75.65470
G01 X-136.87615 Y75.83982
G01 X-139.57244 Y75.84749
G01 X-139.68013 Y75.88015
G01 X-139.76126 Y75.92572
G01 X-140.06723 Y76.22082
G01 X-140.97185 Y76.22082
G01 X-141.04752 Y75.99504
G01 X-141.21475 Y75.70535
G01 X-141.45087 Y75.43987
G01 X-141.73700 Y75.22928
G01 X-142.07045 Y75.07901
G01 X-142.42854 Y75.00456
G01 X-142.78384 Y75.00675
G01 X-143.12112 Y75.07901
G01 X-143.44579 Y75.22356
G01 X-143.73331 Y75.43245
G01 X-143.96453 Y75.68843
G01 X-144.14406 Y75.99504
G01 X-144.26029 Y76.35269
G01 X-144.29524 Y76.70626
G01 X-144.25592 Y77.05937
G01 X-144.15257 Y77.37748
G01 X-143.97682 Y77.68627
G01 X-143.72519 Y77.96575
G01 X-143.44579 Y78.16806
G01 X-143.13088 Y78.30885
G01 X-142.76303 Y78.38706
G01 X-142.40774 Y78.38487
G01 X-142.08056 Y78.31533
G01 X-141.73700 Y78.16234
G01 X-141.45826 Y77.95917
G01 X-141.22704 Y77.70319
G01 X-141.04752 Y77.39658
G01 X-140.97185 Y77.17080
G01 X-139.87048 Y77.17080
G01 X-139.76830 Y77.15930
G01 X-139.59870 Y77.08490
G01 X-139.29273 Y76.78980
G01 X-136.87615 Y76.78980
G01 X-136.81372 Y76.97492
G01 X-136.65692 Y77.24649
G01 X-136.43480 Y77.49643
G01 X-136.15680 Y77.70044
G01 X-135.86099 Y77.83275
G01 X-135.53437 Y77.90440
G01 X-135.20001 Y77.90659
G01 X-134.86236 Y77.83651
G01 X-134.61596 Y77.72739
G01 X-130.78810 Y81.55525
G01 X-130.78808 Y89.66981
G01 X-130.77657 Y89.77200
G01 X-130.71307 Y89.92528
G01 X-130.65556 Y89.99841
G01 X-130.56857 Y90.06981
G01 X-130.39605 Y90.13712
G01 X-129.17441 Y90.14479
G01 X-129.13471 Y90.22859
G01 X-129.01183 Y90.39772
G01 X-128.83436 Y90.55973
G01 X-128.62542 Y90.67847
G01 X-128.40614 Y90.74741
G01 X-128.18778 Y90.76981
G01 X-127.17734 Y90.76925
G01 X-126.94897 Y90.74306
G01 X-126.75014 Y90.67847
G01 X-126.54122 Y90.55973
G01 X-126.36375 Y90.39772
G01 X-126.23040 Y90.21048
G01 X-126.13891 Y89.99961
G01 X-126.09545 Y89.79514
G01 X-126.09380 Y89.55483
G01 X-126.14539 Y89.32013
G01 X-126.23040 Y89.12915
G01 X-126.36375 Y88.94190
G01 X-126.54122 Y88.77990
G01 X-126.75014 Y88.66115
G01 X-126.96942 Y88.59222
G01 X-127.18778 Y88.56981
G01 X-128.18778 Y88.56981
G01 X-128.40614 Y88.59222
G01 X-128.62542 Y88.66115
G01 X-128.83436 Y88.77990
G01 X-129.01183 Y88.94190
G01 X-129.13471 Y89.11104
G01 X-129.17441 Y89.19481
G01 X-129.83809 Y89.19481
G01 X-129.83809 Y81.35850
G01 X-129.87093 Y81.18598
G01 X-129.97721 Y81.02264
G01 X-133.94565 Y77.05419
G01 X-133.89137 Y76.95582
G01 X-133.79447 Y76.65757
G01 X-133.75678 Y76.31480
G01 X-133.79010 Y75.99250
G01 X-133.89511 Y75.66402
G01 X-134.05665 Y75.38312
G01 X-134.28619 Y75.12577
G01 X-134.55678 Y74.92918
G01 X-134.88179 Y74.78843
G01 X-134.88179 Y66.44466
G01 X-114.41831 Y45.98120
G01 X-106.47052 Y45.98120
G01 X-97.40437 Y55.04738
G01 X-97.24103 Y55.15365
G01 X-97.06848 Y55.18652
G01 X-89.65549 Y55.18652
G01 X-89.55331 Y55.17499
G01 X-89.40002 Y55.11151
G01 X-89.31960 Y55.04738
G01 X-88.06451 Y53.79229
G01 X-87.96573 Y53.64705
G01 X-87.93307 Y53.53938
G01 X-87.93307 Y45.32205
G01 X-87.96573 Y45.21435
G01 X-88.06451 Y45.06914
G01 X-92.17609 Y40.95756
G01 X-92.17609 Y39.16326
G01 X-91.18595 Y38.17312
G01 X-76.06383 Y38.17312
G01 X-63.29037 Y50.94660
G01 X-63.14513 Y51.04535
G01 X-62.96429 Y51.08523
G01 X-48.43869 Y51.08571
G01 X-48.24803 Y51.04535
G01 X-48.10282 Y50.94660
G01 X-45.02899 Y47.87274
G01 X-44.92795 Y47.91534
G01 X-44.67199 Y47.96751
G01 X-44.41078 Y47.96532
G01 X-44.15574 Y47.90888
G01 X-43.91802 Y47.80063
G01 X-43.71538 Y47.65275
G01 X-43.54710 Y47.46667
G01 X-43.41462 Y47.24155
G01 X-43.33181 Y46.99380
G01 X-43.30232 Y46.73426
G01 X-43.32747 Y46.47427
G01 X-43.40060 Y46.24209
G01 X-43.30834 Y46.09504
G01 X-43.27548 Y45.92250
G01 X-43.27548 Y42.37280
G01 X-42.14916 Y42.37280
G01 X-42.00705 Y42.63254
G01 X-41.82407 Y42.83333
G01 X-41.61147 Y42.98509
G01 X-41.39184 Y43.08288
G01 X-41.11599 Y43.14151
G01 X-40.85478 Y43.13932
G01 X-40.61963 Y43.08934
G01 X-40.36202 Y42.97463
G01 X-40.15196 Y42.81933
G01 X-39.99110 Y42.64067
G01 X-39.84241 Y42.37280
G01 X-29.87311 Y42.37280
G01 X-29.85810 Y42.49457
G01 X-29.75272 Y42.81192
G01 X-29.59021 Y43.09226
G01 X-29.35826 Y43.34743
G01 X-29.10456 Y43.53175
G01 X-28.79999 Y43.66975
G01 X-28.47337 Y43.74140
G01 X-28.13901 Y43.74359
G01 X-27.79158 Y43.66975
G01 X-27.49578 Y43.53744
G01 X-27.21777 Y43.33343
G01 X-27.00137 Y43.09226
G01 X-26.83037 Y42.79282
G01 X-26.72910 Y42.47412
G01 X-26.69578 Y42.15180
G04 P0 ( dwell for no time -- G64 should not smooth over this point )
G00 Z5.00000 ( retract )

G00 X-25.16848 Y41.01891 ( rapid move to begin. )
G01 F300.00000
G01 Z-0.05000
G04 P0 ( dwell for no time -- G64 should not smooth over this point )
G01 F600.00000
G01 X-25.16848 Y41.01891
G01 X-25.16848 Y43.80950
G01 X-25.20134 Y43.98204
G01 X-25.30762 Y44.14539
G01 X-26.55079 Y45.38857
G01 X-26.55079 Y81.55919
G01 X-26.46700 Y81.59889
G01 X-26.28973 Y81.72835
G01 X-26.14246 Y81.89111
G01 X-26.02565 Y82.08908
G01 X-25.95252 Y82.30699
G01 X-25.92578 Y82.54580
G01 X-25.92578 Y83.54582
G01 X-25.94818 Y83.76418
G01 X-26.01714 Y83.98344
G01 X-26.13017 Y84.18359
G01 X-26.28234 Y84.35588
G01 X-26.47579 Y84.49845
G01 X-26.67609 Y84.58821
G01 X-26.91081 Y84.63977
G01 X-27.13032 Y84.64033
G01 X-27.35559 Y84.59469
G01 X-27.56646 Y84.50320
G01 X-27.76923 Y84.35588
G01 X-27.92140 Y84.18359
G01 X-28.03443 Y83.98344
G01 X-28.10339 Y83.76418
G01 X-28.12580 Y83.54582
G01 X-28.12580 Y82.54580
G01 X-28.09905 Y82.30699
G01 X-28.02592 Y82.08908
G01 X-27.90911 Y81.89111
G01 X-27.76184 Y81.72835
G01 X-27.58457 Y81.59889
G01 X-27.50081 Y81.55921
G01 X-27.50078 Y45.19182
G01 X-27.46794 Y45.01928
G01 X-27.36824 Y44.86320
G01 X-26.11849 Y43.61275
G01 X-26.11849 Y41.21568
G01 X-28.13636 Y39.19780
G01 X-44.91385 Y39.19780
G01 X-45.01436 Y39.33242
G01 X-45.15556 Y39.45663
G01 X-45.31949 Y39.54875
G01 X-45.47854 Y39.60044
G01 X-45.67578 Y39.62282
G01 X-46.47580 Y39.62282
G01 X-46.67303 Y39.60044
G01 X-46.85119 Y39.54024
G01 X-47.01293 Y39.44433
G01 X-47.15121 Y39.31690
G01 X-47.25520 Y39.17281
G01 X-47.33173 Y39.00093
G01 X-47.37140 Y38.80644
G01 X-47.36922 Y38.61840
G01 X-47.33173 Y38.44469
G01 X-47.25997 Y38.28213
G01 X-47.14461 Y38.12059
G01 X-47.01293 Y38.00128
G01 X-46.83208 Y37.89686
G01 X-46.66290 Y37.84248
G01 X-46.47580 Y37.82280
G01 X-45.67578 Y37.82280
G01 X-45.47854 Y37.84518
G01 X-45.31949 Y37.89686
G01 X-45.15556 Y37.98899
G01 X-45.00697 Y38.12059
G01 X-44.91385 Y38.24782
G01 X-27.85663 Y38.25549
G01 X-27.74894 Y38.28815
G01 X-27.60370 Y38.38693
G01 X-25.30762 Y40.68304
G01 X-25.20884 Y40.82825
G01 X-25.16848 Y41.01891
G04 P0 ( dwell for no time -- G64 should not smooth over this point )
G00 Z5.00000 ( retract )

G00 X-38.22179 Y23.22880 ( rapid move to begin. )
G01 F300.00000
G01 Z-0.05000
G04 P0 ( dwell for no time -- G64 should not smooth over this point )
G01 F600.00000
G01 X-38.22179 Y23.22880
G01 X-38.25181 Y23.49880
G01 X-38.33462 Y23.74655
G01 X-38.46052 Y23.96354
G01 X-38.64351 Y24.16433
G01 X-38.83802 Y24.30563
G01 X-38.99679 Y24.37873
G01 X-39.00830 Y24.76760
G01 X-39.07180 Y24.92089
G01 X-39.13591 Y25.00128
G01 X-43.83557 Y29.70028
G01 X-43.97354 Y29.79246
G01 X-44.08121 Y29.82513
G01 X-44.72383 Y29.83280
G01 X-50.84409 Y35.95308
G01 X-50.85176 Y47.33558
G01 X-50.88445 Y47.44325
G01 X-50.98321 Y47.58849
G01 X-52.84101 Y49.44630
G01 X-52.98625 Y49.54505
G01 X-53.17688 Y49.58541
G01 X-61.77028 Y49.58541
G01 X-61.87247 Y49.57391
G01 X-62.02576 Y49.51041
G01 X-62.10617 Y49.44630
G01 X-74.91755 Y36.63492
G01 X-91.77873 Y36.63492
G01 X-93.68470 Y38.54086
G01 X-93.68470 Y44.91471
G01 X-93.69620 Y45.01689
G01 X-93.75970 Y45.17018
G01 X-94.01924 Y45.44600
G01 X-92.45435 Y47.01082
G01 X-91.62580 Y47.01082
G01 X-91.62387 Y46.46629
G01 X-91.59649 Y46.41511
G01 X-91.54531 Y46.38773
G01 X-89.52578 Y46.38580
G01 X-89.47023 Y46.40266
G01 X-89.44264 Y46.43025
G01 X-89.42578 Y46.48580
G01 X-89.42771 Y48.50533
G01 X-89.45509 Y48.55651
G01 X-89.50627 Y48.58389
G01 X-90.05079 Y48.58579
G01 X-90.05079 Y51.57918
G01 X-89.96700 Y51.61888
G01 X-89.79789 Y51.74177
G01 X-89.63586 Y51.91924
G01 X-89.51714 Y52.12818
G01 X-89.44983 Y52.33709
G01 X-89.42634 Y52.55536
G01 X-89.44818 Y52.78419
G01 X-89.52090 Y53.01322
G01 X-89.63017 Y53.20359
G01 X-89.78234 Y53.37588
G01 X-89.98511 Y53.52320
G01 X-90.19598 Y53.61469
G01 X-90.40048 Y53.65815
G01 X-90.65110 Y53.65815
G01 X-90.85559 Y53.61469
G01 X-91.06646 Y53.52320
G01 X-91.26923 Y53.37588
G01 X-91.42140 Y53.20359
G01 X-91.53443 Y53.00344
G01 X-91.59905 Y52.80463
G01 X-91.62524 Y52.57626
G01 X-91.60339 Y52.34743
G01 X-91.52592 Y52.10908
G01 X-91.41571 Y51.91924
G01 X-91.26923 Y51.75574
G01 X-91.08457 Y51.61888
G01 X-91.00081 Y51.57918
G01 X-91.00078 Y48.74526
G01 X-91.16024 Y48.58582
G01 X-91.52580 Y48.58582
G01 X-91.59649 Y48.55651
G01 X-91.62580 Y48.48582
G01 X-91.62580 Y48.12026
G01 X-91.78526 Y47.96080
G01 X-92.66090 Y47.96032
G01 X-92.82361 Y47.92796
G01 X-92.92285 Y47.87492
G01 X-94.69097 Y46.11775
G01 X-97.22464 Y48.65140
G01 X-97.17036 Y48.74980
G01 X-97.06912 Y49.06850
G01 X-97.03633 Y49.40126
G01 X-97.07346 Y49.73357
G01 X-97.17887 Y50.05092
G01 X-97.34794 Y50.33941
G01 X-97.56518 Y50.57985
G01 X-97.82700 Y50.77075
G01 X-98.14135 Y50.91251
G01 X-98.45819 Y50.98040
G01 X-98.79259 Y50.98259
G01 X-99.13020 Y50.91251
G01 X-99.44458 Y50.77075
G01 X-99.71379 Y50.57243
G01 X-99.93023 Y50.33126
G01 X-100.10122 Y50.03182
G01 X-100.19812 Y49.73357
G01 X-100.23523 Y49.40126
G01 X-100.19812 Y49.04805
G01 X-100.10122 Y48.74980
G01 X-99.93592 Y48.45912
G01 X-99.71379 Y48.20919
G01 X-99.42647 Y48.00043
G01 X-99.13020 Y47.86911
G01 X-98.81336 Y47.80121
G01 X-98.45819 Y47.80121
G01 X-98.14135 Y47.86911
G01 X-97.89495 Y47.97823
G01 X-94.63468 Y44.71796
G01 X-94.63468 Y38.34411
G01 X-94.62318 Y38.24192
G01 X-94.55968 Y38.08863
G01 X-94.49557 Y38.00824
G01 X-92.31137 Y35.82402
G01 X-92.14802 Y35.71775
G01 X-91.97548 Y35.68491
G01 X-74.72078 Y35.68491
G01 X-74.54826 Y35.71775
G01 X-74.38491 Y35.82402
G01 X-61.57353 Y48.63540
G01 X-53.37363 Y48.63540
G01 X-51.79408 Y47.05585
G01 X-51.79408 Y36.65780
G01 X-52.53385 Y36.65780
G01 X-52.62697 Y36.78503
G01 X-52.75864 Y36.90433
G01 X-52.92039 Y37.00024
G01 X-53.09854 Y37.06044
G01 X-53.29578 Y37.08282
G01 X-54.09580 Y37.08282
G01 X-54.29303 Y37.06044
G01 X-54.46184 Y37.00499
G01 X-54.61602 Y36.91663
G01 X-54.76461 Y36.78503
G01 X-54.85772 Y36.65780
G01 X-59.57405 Y36.65780
G01 X-59.55832 Y36.82826
G01 X-59.58347 Y37.06735
G01 X-59.67062 Y37.33555
G01 X-59.79652 Y37.55254
G01 X-59.96396 Y37.73933
G01 X-60.19210 Y37.90509
G01 X-60.42152 Y38.00662
G01 X-60.66678 Y38.05932
G01 X-60.94880 Y38.05932
G01 X-61.20384 Y38.00288
G01 X-61.42347 Y37.90509
G01 X-61.63607 Y37.75333
G01 X-61.81905 Y37.55254
G01 X-61.95347 Y37.31645
G01 X-62.03211 Y37.06735
G01 X-62.05725 Y36.80736
G01 X-62.02776 Y36.54782
G01 X-61.95347 Y36.31917
G01 X-61.81905 Y36.08308
G01 X-61.63607 Y35.88229
G01 X-61.44156 Y35.74099
G01 X-61.28278 Y35.66789
G01 X-61.28278 Y31.68057
G01 X-68.71258 Y24.25074
G01 X-68.80352 Y24.29062
G01 X-69.04878 Y24.34332
G01 X-69.33080 Y24.34332
G01 X-69.57606 Y24.29062
G01 X-69.80547 Y24.18909
G01 X-70.03361 Y24.02333
G01 X-70.20105 Y23.83654
G01 X-70.33547 Y23.60045
G01 X-70.40976 Y23.37180
G01 X-70.43925 Y23.11226
G01 X-70.40976 Y22.83182
G01 X-70.33547 Y22.60317
G01 X-70.20677 Y22.37586
G01 X-70.03361 Y22.18028
G01 X-69.82356 Y22.02499
G01 X-69.57606 Y21.91300
G01 X-69.33080 Y21.86030
G01 X-69.06958 Y21.85811
G01 X-68.80352 Y21.91300
G01 X-68.55602 Y22.02499
G01 X-68.34596 Y22.18028
G01 X-68.17852 Y22.36708
G01 X-68.05262 Y22.58407
G01 X-67.96709 Y22.84193
G01 X-67.94032 Y23.11226
G01 X-67.96709 Y23.36169
G01 X-68.03804 Y23.58181
G01 X-60.41870 Y31.21204
G01 X-60.36564 Y31.31128
G01 X-60.33279 Y31.48380
G01 X-60.33279 Y35.66789
G01 X-60.24316 Y35.70779
G01 X-54.85772 Y35.70779
G01 X-54.76461 Y35.58059
G01 X-54.61602 Y35.44899
G01 X-54.46184 Y35.36062
G01 X-54.29303 Y35.30518
G01 X-54.09580 Y35.28280
G01 X-53.29578 Y35.28280
G01 X-53.09854 Y35.30518
G01 X-52.92039 Y35.36537
G01 X-52.75864 Y35.46128
G01 X-52.62697 Y35.58059
G01 X-52.53385 Y35.70779
G01 X-51.78978 Y35.70782
G01 X-51.75374 Y35.56565
G01 X-51.65496 Y35.42044
G01 X-45.25647 Y29.02193
G01 X-45.11123 Y28.92317
G01 X-45.00354 Y28.89051
G01 X-44.36092 Y28.88281
G01 X-39.94678 Y24.46867
G01 X-39.94678 Y24.37873
G01 X-40.10556 Y24.30563
G01 X-40.30007 Y24.16433
G01 X-40.48305 Y23.96354
G01 X-40.61747 Y23.72745
G01 X-40.69611 Y23.47835
G01 X-40.72178 Y23.22880
G01 X-40.69176 Y22.95882
G01 X-40.61747 Y22.73017
G01 X-40.48877 Y22.50286
G01 X-40.31561 Y22.30728
G01 X-40.08747 Y22.14152
G01 X-39.85806 Y22.04000
G01 X-39.61280 Y21.98730
G01 X-39.33078 Y21.98730
G01 X-39.07574 Y22.04373
G01 X-38.85610 Y22.14152
G01 X-38.64351 Y22.29329
G01 X-38.46052 Y22.49408
G01 X-38.32611 Y22.73017
G01 X-38.24747 Y22.97927
G01 X-38.22179 Y23.22880
G04 P0 ( dwell for no time -- G64 should not smooth over this point )
G00 Z5.00000 ( retract )

G00 X-40.76179 Y22.07881 ( rapid move to begin. )
G01 F300.00000
G01 Z-0.05000
G04 P0 ( dwell for no time -- G64 should not smooth over this point )
G01 F600.00000
G01 X-40.76179 Y22.07881
G01 X-40.79108 Y22.00810
G01 X-40.86179 Y21.97881
G01 X-43.16178 Y21.97881
G01 X-43.23250 Y22.00810
G01 X-43.26178 Y22.07881
G01 X-43.26178 Y23.80708
G01 X-51.70637 Y32.25164
G01 X-51.80513 Y32.39688
G01 X-51.83779 Y32.50455
G01 X-51.84549 Y33.16782
G01 X-52.53385 Y33.16782
G01 X-52.63436 Y33.03320
G01 X-52.77556 Y32.90899
G01 X-52.93949 Y32.81686
G01 X-53.11902 Y32.76083
G01 X-53.29578 Y32.74280
G01 X-54.09580 Y32.74280
G01 X-54.27256 Y32.76083
G01 X-54.45208 Y32.81686
G01 X-54.61602 Y32.90899
G01 X-54.77121 Y33.04872
G01 X-54.87520 Y33.19281
G01 X-54.95445 Y33.37480
G01 X-54.99140 Y33.55918
G01 X-54.99140 Y33.72644
G01 X-54.95445 Y33.91082
G01 X-54.87520 Y34.09281
G01 X-54.77121 Y34.23690
G01 X-54.63293 Y34.36433
G01 X-54.47119 Y34.46024
G01 X-54.27256 Y34.52479
G01 X-54.09580 Y34.54282
G01 X-53.28534 Y34.54226
G01 X-53.09854 Y34.52044
G01 X-52.92039 Y34.46024
G01 X-52.75864 Y34.36433
G01 X-52.63436 Y34.25242
G01 X-52.53385 Y34.11780
G01 X-51.36068 Y34.11732
G01 X-51.17985 Y34.07747
G01 X-51.04188 Y33.98526
G01 X-50.97048 Y33.89830
G01 X-50.90317 Y33.72578
G01 X-50.89548 Y32.78428
G01 X-42.59003 Y24.47881
G01 X-40.86179 Y24.47881
G01 X-40.79108 Y24.44952
G01 X-40.76179 Y24.37881
G01 X-40.76179 Y22.07881
G04 P0 ( dwell for no time -- G64 should not smooth over this point )
G00 Z5.00000 ( retract )

G00 X-25.42578 Y7.55781 ( rapid move to begin. )
G01 F300.00000
G01 Z-0.05000
G04 P0 ( dwell for no time -- G64 should not smooth over this point )
G01 F600.00000
G01 X-25.42578 Y7.55781
G01 X-25.45509 Y7.48710
G01 X-25.52578 Y7.45781
G01 X-29.34180 Y7.45781
G01 X-29.41249 Y7.48710
G01 X-29.44180 Y7.55781
G01 X-29.44180 Y11.37380
G01 X-29.41249 Y11.44452
G01 X-29.34180 Y11.47380
G01 X-25.52578 Y11.47380
G01 X-25.45509 Y11.44452
G01 X-25.42578 Y11.37380
G01 X-25.42578 Y7.55781
G04 P0 ( dwell for no time -- G64 should not smooth over this point )
G00 Z5.00000 ( retract )

G00 X-49.80978 Y7.55781 ( rapid move to begin. )
G01 F300.00000
G01 Z-0.05000
G04 P0 ( dwell for no time -- G64 should not smooth over this point )
G01 F600.00000
G01 X-49.80978 Y7.55781
G01 X-49.80978 Y11.37380
G01 X-49.83909 Y11.44452
G01 X-49.90978 Y11.47380
G01 X-53.72580 Y11.47380
G01 X-53.79649 Y11.44452
G01 X-53.82580 Y11.37380
G01 X-53.82580 Y7.55781
G01 X-53.79649 Y7.48710
G01 X-53.72580 Y7.45781
G01 X-49.90978 Y7.45781
G01 X-49.83909 Y7.48710
G01 X-49.80978 Y7.55781
G04 P0 ( dwell for no time -- G64 should not smooth over this point )
G00 Z5.00000 ( retract )

G00 X-57.42579 Y7.47780 ( rapid move to begin. )
G01 F300.00000
G01 Z-0.05000
G04 P0 ( dwell for no time -- G64 should not smooth over this point )
G01 F600.00000
G01 X-57.42579 Y7.47780
G01 X-57.42579 Y11.29382
G01 X-57.45508 Y11.36451
G01 X-57.52579 Y11.39382
G01 X-61.34178 Y11.39382
G01 X-61.41250 Y11.36451
G01 X-61.44178 Y11.29382
G01 X-61.44178 Y7.47780
G01 X-61.41250 Y7.40711
G01 X-61.34178 Y7.37780
G01 X-57.52579 Y7.37780
G01 X-57.45508 Y7.40711
G01 X-57.42579 Y7.47780
G04 P0 ( dwell for no time -- G64 should not smooth over this point )
G00 Z5.00000 ( retract )

G00 X-81.80979 Y7.47780 ( rapid move to begin. )
G01 F300.00000
G01 Z-0.05000
G04 P0 ( dwell for no time -- G64 should not smooth over this point )
G01 F600.00000
G01 X-81.80979 Y7.47780
G01 X-81.80979 Y11.29382
G01 X-81.83908 Y11.36451
G01 X-81.90979 Y11.39382
G01 X-85.72578 Y11.39382
G01 X-85.79650 Y11.36451
G01 X-85.82578 Y11.29382
G01 X-85.82578 Y7.47780
G01 X-85.79650 Y7.40711
G01 X-85.72578 Y7.37780
G01 X-81.90979 Y7.37780
G01 X-81.83908 Y7.40711
G01 X-81.80979 Y7.47780
G04 P0 ( dwell for no time -- G64 should not smooth over this point )
G00 Z5.00000 ( retract )

G00 X-87.42578 Y7.55781 ( rapid move to begin. )
G01 F300.00000
G01 Z-0.05000
G04 P0 ( dwell for no time -- G64 should not smooth over this point )
G01 F600.00000
G01 X-87.42578 Y7.55781
G01 X-87.42578 Y11.37380
G01 X-87.45507 Y11.44452
G01 X-87.52578 Y11.47380
G01 X-91.34177 Y11.47380
G01 X-91.41249 Y11.44452
G01 X-91.44177 Y11.37380
G01 X-91.44177 Y7.55781
G01 X-91.41249 Y7.48710
G01 X-91.34177 Y7.45781
G01 X-87.52578 Y7.45781
G01 X-87.45507 Y7.48710
G01 X-87.42578 Y7.55781
G04 P0 ( dwell for no time -- G64 should not smooth over this point )
G00 Z5.00000 ( retract )

G00 X-111.80978 Y7.55781 ( rapid move to begin. )
G01 F300.00000
G01 Z-0.05000
G04 P0 ( dwell for no time -- G64 should not smooth over this point )
G01 F600.00000
G01 X-111.80978 Y7.55781
G01 X-111.83907 Y7.48710
G01 X-111.90978 Y7.45781
G01 X-115.72577 Y7.45781
G01 X-115.79649 Y7.48710
G01 X-115.82577 Y7.55781
G01 X-115.82577 Y11.37380
G01 X-115.79649 Y11.44452
G01 X-115.72577 Y11.47380
G01 X-111.90978 Y11.47380
G01 X-111.83907 Y11.44452
G01 X-111.80978 Y11.37380
G01 X-111.80978 Y7.55781
G04 P0 ( dwell for no time -- G64 should not smooth over this point )
G00 Z5.00000 ( retract )

G00 X-86.63178 Y28.95980 ( rapid move to begin. )
G01 F300.00000
G01 Z-0.05000
G04 P0 ( dwell for no time -- G64 should not smooth over this point )
G01 F600.00000
G01 X-86.63178 Y28.95980
G01 X-86.66109 Y28.88911
G01 X-86.73178 Y28.85980
G01 X-88.75131 Y28.86173
G01 X-88.80249 Y28.88911
G01 X-88.82987 Y28.94029
G01 X-88.83180 Y29.48482
G01 X-89.85709 Y29.48482
G01 X-89.95928 Y29.49632
G01 X-90.04772 Y29.52515
G01 X-90.18569 Y29.61735
G01 X-90.56184 Y29.99282
G01 X-94.96041 Y29.99282
G01 X-95.10252 Y29.73308
G01 X-95.28551 Y29.53229
G01 X-95.49810 Y29.38052
G01 X-95.71774 Y29.28273
G01 X-95.99358 Y29.22411
G01 X-96.25480 Y29.22630
G01 X-96.48995 Y29.27628
G01 X-96.74756 Y29.39099
G01 X-96.95761 Y29.54628
G01 X-97.11847 Y29.72495
G01 X-97.26716 Y29.99282
G01 X-98.82733 Y29.99282
G01 X-103.51279 Y25.30735
G01 X-103.51279 Y24.47881
G01 X-102.81828 Y24.47688
G01 X-102.76708 Y24.44952
G01 X-102.73972 Y24.39831
G01 X-102.73779 Y22.07881
G01 X-102.75463 Y22.02326
G01 X-102.78224 Y21.99565
G01 X-102.83779 Y21.97881
G01 X-105.13778 Y21.97881
G01 X-105.19333 Y21.99565
G01 X-105.23016 Y22.04053
G01 X-105.23585 Y24.39831
G01 X-105.20850 Y24.44952
G01 X-105.15729 Y24.47688
G01 X-104.46278 Y24.47881
G01 X-104.46230 Y25.51391
G01 X-104.42994 Y25.67665
G01 X-104.37688 Y25.77588
G01 X-99.35997 Y30.80369
G01 X-99.19662 Y30.90996
G01 X-99.02408 Y30.94280
G01 X-97.26716 Y30.94280
G01 X-97.12505 Y31.20254
G01 X-96.94207 Y31.40333
G01 X-96.72947 Y31.55509
G01 X-96.50984 Y31.65288
G01 X-96.23399 Y31.71151
G01 X-95.97278 Y31.70932
G01 X-95.73763 Y31.65934
G01 X-95.48002 Y31.54463
G01 X-95.26996 Y31.38933
G01 X-95.10910 Y31.21067
G01 X-94.96041 Y30.94280
G01 X-90.35529 Y30.94232
G01 X-90.19255 Y30.90996
G01 X-90.09331 Y30.85690
G01 X-89.66035 Y30.43480
G01 X-88.83177 Y30.43480
G01 X-88.82987 Y30.97933
G01 X-88.80249 Y31.03051
G01 X-88.75131 Y31.05789
G01 X-86.71227 Y31.05789
G01 X-86.64864 Y31.01537
G01 X-86.63178 Y30.95982
G01 X-86.63178 Y28.95980
G04 P0 ( dwell for no time -- G64 should not smooth over this point )
G00 Z5.00000 ( retract )

G00 X-70.47979 Y23.10180 ( rapid move to begin. )
G01 F300.00000
G01 Z-0.05000
G04 P0 ( dwell for no time -- G64 should not smooth over this point )
G01 F600.00000
G01 X-70.47979 Y23.10180
G01 X-70.50981 Y23.37180
G01 X-70.58411 Y23.60045
G01 X-70.71281 Y23.82775
G01 X-70.88596 Y24.02333
G01 X-71.11410 Y24.18909
G01 X-71.34352 Y24.29062
G01 X-71.58878 Y24.34332
