( Code generated by pocket.py widget )
( by Sammel Lothar - 2010 )
G17 G21 G90 G64 P0.01 M3 S3000 M7
G0 Z5.0000 
G0 X30.0000 Y30.0000 
( 40.0000x40.0000 rectangular Pocket at 30.0000,30.0000 )
( Spiral Zero Path )
G1 G91 Z-1.000 F100.00 
G1 G91 X2.188 F250.00 
G1 Y2.188 
G1 X-4.375 
G1 Y-4.375 
G1 G91 X6.562 F250.00 
G1 Y6.562 
G1 X-8.750 
G1 Y-8.750 
G1 G91 X10.938 F250.00 
G1 Y10.938 
G1 X-13.125 
G1 Y-13.125 
G1 G91 X15.312 F250.00 
G1 Y15.312 
G1 X-17.500 
G1 Y-17.500 
G1 G91 X19.688 F250.00 
G1 Y19.688 
G1 X-21.875 
G1 Y-21.875 
G1 G91 X24.062 F250.00 
G1 Y24.062 
G1 X-26.250 
G1 Y-26.250 
G1 G91 X28.438 F250.00 
G1 Y28.438 
G1 X-30.625 
G1 Y-30.625 
G1 X30.625 
G1 G90 X30.0000 Y30.0000 
G0 Z5.0000 
M5 M9 M2
