( Code generated by pocket.py widget )
( by Sammel Lothar - 2010 )
G17 G21 G90 G64 P0.01 M3 S3000 M7
G0 Z5.0000 
G0 X30.0000 Y30.0000 
( 40.0000x40.0000 rectangular Pocket at 30.0000,30.0000 )
( Spiral Zero Path )
G1 G91 Z-1.000 F100.00 
G1 G91 X2.167 F250.00 
G1 Y2.167 
G1 X-4.333 
G1 Y-4.333 
G1 G91 X6.500 F250.00 
G1 Y6.500 
G1 X-8.667 
G1 Y-8.667 
G1 G91 X10.833 F250.00 
G1 Y10.833 
G1 X-13.000 
G1 Y-13.000 
G1 G91 X15.167 F250.00 
G1 Y15.167 
G1 X-17.333 
G1 Y-17.333 
G1 G91 X19.500 F250.00 
G1 Y19.500 
G1 X-21.667 
G1 Y-21.667 
G1 G91 X23.833 F250.00 
G1 Y23.833 
G1 X-26.000 
G1 Y-26.000 
G1 G91 X28.167 F250.00 
G1 Y28.167 
G1 X-30.333 
G1 Y-30.333 
G1 G91 X32.500 F250.00 
G1 Y32.500 
G1 X-34.667 
G1 Y-34.667 
G1 X34.667 
G1 G90 X49.500 Y49.500 
G1 X10.500 
G1 Y10.500 
G1 X49.500 
G1 Y49.500 
G1 G90 X30.0000 Y30.0000 
G0 Z5.0000 
M5 M9 M2

