( Code generated by pocket.py widget )
( by Sammel Lothar - 2010 )
G17 G21 G90 G64 P0.01 M3 S3000 M7
G0 Z5.0000 
G0 X30.0000 Y30.0000 
( 40.0000x40.0000 rectangular Pocket at 30.0000,30.0000 )
( Parallel Zero Path )
G1 G90 Z0.00 F100.00 (Move to Z Zero for incremental Z pathes )
G1 G91 Z-1.000 F100.00 
G1 G90 X31.500 Y31.500 F250.00 
G1 X28.500 
G1 Y28.500 
G1 X31.500 
G1 Y31.500 
G1 G90 X33.500 Y33.500 F250.00 
G1 X26.500 
G1 Y26.500 
G1 X33.500 
G1 Y33.500 
G1 G90 X35.500 Y35.500 F250.00 
G1 X24.500 
G1 Y24.500 
G1 X35.500 
G1 Y35.500 
G1 G90 X37.500 Y37.500 F250.00 
G1 X22.500 
G1 Y22.500 
G1 X37.500 
G1 Y37.500 
G1 G90 X39.500 Y39.500 F250.00 
G1 X20.500 
G1 Y20.500 
G1 X39.500 
G1 Y39.500 
G1 G90 X41.500 Y41.500 F250.00 
G1 X18.500 
G1 Y18.500 
G1 X41.500 
G1 Y41.500 
G1 G90 X43.500 Y43.500 F250.00 
G1 X16.500 
G1 Y16.500 
G1 X43.500 
G1 Y43.500 
G1 G90 X45.500 Y45.500 F250.00 
G1 X14.500 
G1 Y14.500 
G1 X45.500 
G1 Y45.500 
G1 G90 X30.0000 Y30.0000 
G0 Z5.0000 
M5 M9 M2

