( Code generated by pocket.py widget )
( by Sammel Lothar - 2010 )
G17 G21 G90 G64 P0.01 M3 S3000 M7
G0 Z5.0000 
G0 X30.0000 Y30.0000 
( 40.0000x40.0000 rectangular Pocket at 30.0000,30.0000 )
( Spiral Zero Path )
G1 G91 Z-1.000 F100.00 
G1 G91 X2.167 F250.00 
G1 Y2.167 
G1 X-4.333 
G1 Y-4.333 
G1 G91 X6.500 F250.00 
G1 Y6.500 
G1 X-8.667 
G1 Y-8.667 
G1 G90 X30.0000 Y30.0000 
G0 Z5.0000 
M5 M9 M2

